!!!!SEGMENT: pl-cz--iii-553--001-008_raszek-waclaw--missa-in-f-benedictus.krn
!!!cenid: 18xx:1001
!!!COM: Raszek, Wacław
!!!COM-rismID: pe30020314
!!!CDT: <1848->1848
!!!CNT:
!!!OPR: Missa in F
!!!OTL: Benedictus
!!!OMV: 008
!!!PDT: 1829
!!!AGN: Sacred; Mass
!!!YEC: Copyright 2022 Narodowy Instytut Fryderyka Chopina (https://polishscores.org)
!!!YEM: License CC-BY-4.0 (https://creativecommons.org/licenses/by/4.0)
!!!SMS-siglum: PL-CZ
!!!SMS-shelfmark: III-553
!!!SMS-shelfwork: 001-008 M
!!!SMS-variant:
!!!SMS-altvar:
!!!NIFC-rismSourceID: 300001048
!!!NIFC-rismChildID: 300001048
!!!NIFC-islandoraID: pl-cz:38806
!!!URL-pdf-islandora: https://repozytorium.nifc.pl/islandora/object/pl-cz%3A38806/datastream/PDF/view
!!!URL-scan: https://polish.musicsources.pl/pl/lokalizacje/galeria/rekopisy/6943/1 @EN{Scan on Polish Music Sources Website} @PL{Skany w portalu Dziedzictwo Muzyki Polskiej w otwartym dostępie}
!!!IIIF:
!!!ONB-nifc: UWAGA: części Mszy: Kyrie, Gloria, Credo, Et incarnatus, Et resurrexit, Sanctus, Pleni sunt, Benedictus, Agnus Dei, Dona nobis
!!!AIN: 1 alto 1 bass 2 clars 2 cor 1 organ 1 soprn 1 tenor 1 viola 2 violn
!!!key: B-
!!!OMD:
!!!OMD-mod: Andante largo
**kern	**dynam	**kern	**dynam	**kern	**dynam	**kern	**dynam	**kern	**kern	**kern	**kern	**text	**dynam	**kern	**kern	**kern	**kern	**dynam
*part12	*	*part11	*	*part10	*	*part9	*	*part8	*part7	*part6	*part5	*	*	*part4	*part3	*part2	*part1	*
*staff12	*	*staff11	*	*staff10	*	*staff9	*	*staff8	*staff7	*staff6	*staff5	*	*	*staff4	*staff3	*staff2	*staff1	*
*IGcont	*	*IGacmp	*	*IGacmp	*	*IGacmp	*	*IGcoro	*IGcoro	*IGcoro	*IGcoro	*	*	*IGacmp	*IGacmp	*IGacmp	*IGacmp	*
*ICklav	*	*ICstr	*	*ICstr	*	*ICstr	*	*ICvox	*ICvox	*ICvox	*ICvox	*	*	*ICbras	*ICbras	*ICww	*ICww	*
*Iorgan	*	*Iviola	*	*Ivioln	*	*Ivioln	*	*Ibass	*Itenor	*Ialto	*Isoprn	*	*	*Icor	*Icor	*Iclars	*Iclars	*
*I"Organo.	*	*I"Alto Viola	*	*I"Violino Secondo.	*	*I"Violino Primo.	*	*I"Basso.	*I"Tenore.	*I"Alto.	*I"Canto.	*	*	*I"Corno Secondo in F.	*I"Corno Primo in F.	*I"Clarinetto Secondo in B.	*I"Clarinetto. Primo. in B.	*
*mI"Organo	*	*mI"Viola	*	*mI"Violino II	*	*mI"Violino I	*	*mI"Basso	*mI"Tenore	*mI"Alto	*mI"Soprano	*	*	*mI"Corno II in F	*mI"Corno I in F	*mI"Clarinetto II in Bb	*mI"Clarinetto I in Bb	*
*I'org	*	*I'a-vla	*	*I'vl 2	*	*I'vl 1	*	*I'B	*I'T	*I'A	*I'S	*	*	*I'cor 2	*I'cor 1	*I'cl 2	*I'cl 1	*
*clefF4	*	*clefC3	*	*clefG2	*	*clefG2	*	*clefF4	*clefC4	*clefC3	*clefC1	*	*	*clefG2	*clefG2	*clefG2	*clefG2	*
*	*	*	*	*	*	*	*	*	*mclefGv2	*mclefG2	*mclefG2	*	*	*	*	*	*	*
*	*	*	*	*	*	*	*	*	*	*	*	*	*	*ITrd4c7	*ITrd4c7	*ITrd1c2	*ITrd1c2	*
*k[b-e-]	*	*k[b-e-]	*	*k[b-e-]	*	*k[b-e-]	*	*k[b-e-]	*k[b-e-]	*k[b-e-]	*k[b-e-]	*	*	*k[b-]	*k[b-]	*k[b-e-]	*k[b-e-]	*
*B-:	*	*	*	*B-:	*	*B-:	*	*B-:	*B-:	*B-:	*B-:	*	*	*	*	*	*	*
*M2/4	*	*M2/4	*	*M2/4	*	*M2/4	*	*M2/4	*M2/4	*M2/4	*M2/4	*	*	*M2/4	*M2/4	*M2/4	*M2/4	*
*2\right	*below	*2\right	*	*2\right	*	*2\right	*below	*2\right	*2\right	*2\right	*2\right	*	*	*2\right	*2\right	*2\right	*2\right	*
*	*	*	*	*	*	*	*	*tacet	*tacet	*tacet	*	*	*	*tacet	*tacet	*tacet	*	*
=1	=1	=1	=1	=1	=1	=1	=1	=1	=1	=1	=1	=1	=1	=1	=1	=1	=1	=1
!	!	!	!	!	!	!	!	!	!	!	!	!	!	!	!	!	!LO:TX:a:i:t=expressivo.:mod=espressivo	!
!	!	!	!	!	!	!	!	!	!	!	!	!	!	!	!	!	!LO:TX:a:i:t=Solo.:mod=Solo	!
!LO:TX:a:i:t=Solo.:mod=Solo	!LO:MO:null:mod=!LO&colon;DY&colon;ed=brack	!LO:TX:a:t=andante Largo.:mod=	!LO:MO:null:mod=!LO&colon;DY&colon;ed=brack	!	!	!	!	!	!	!	!LO:TX:a:t=17.:mod=	!	!	!	!	!	!LO:TX:a:t=andante:rj:mod=	!LO:MO:null:mod=!LO&colon;DY&colon;ed=brack
!LO:TX:a:t=Andante Largo.:mod=	!	!LO:MO:mod=!LO&colon;TX&colon;i&colon;t=pizz.	!	!LO:TX:a:i:t=Largo.:mod=	!	!.	!	!	!	!	!LO:TX:a:t=Andante Largo:mod=	!	!	!	!	!	!	!
!	!LO:MO:null:mod=p	!LO:TX:b:i:t=pizzicatto.	!LO:MO:null:mod=p	!	!LO:DY:a:t=p.	!LO:TX:a:t=andante Largo.:mod=	!LO:DY:t=p.:rj	!LO:TX:t=Benedictus Tacet	!LO:TX:t=Benedictus Tacet.	!LO:TX:t=Benedictus\n Tacet.	!LO:TX:t=17.:b:mod=	!	!	!LO:TX:t=Benedictus Tacet.	!LO:TX:t=Benedictus Tacet.:problem=zapis ołówkiem	!LO:TX:t=Benedictus Tacet.	!	!LO:MO:null:mod=p
8BB-\	.	8F/	.	(16B-/LL	p	(16d/LL	p	2ryy	2ryy	2ryy	2r	.	.	2ryy	2ryy	2ryy	[4b-\	.
.	.	.	.	16d/	.	16f/	.	.	.	.	.	.	.	.	.	.	.	.
8r	.	8r	.	16B-/	.	16d/	.	.	.	.	.	.	.	.	.	.	.	.
.	.	.	.	16d/JJ)	.	16f/JJ)	.	.	.	.	.	.	.	.	.	.	.	.
*	*	*	*	*rep	*	*	*	*	*	*	*	*	*	*	*	*	*	*
8B-\	.	8F/	.	(16B-/LL	.	(16d/LL	.	.	.	.	.	.	.	.	.	.	(16b-\LL]	.
.	.	.	.	16d/	.	16f/	.	.	.	.	.	.	.	.	.	.	16dd\	.
8r	.	8r	.	16B-/	.	16d/	.	.	.	.	.	.	.	.	.	.	16gg\	.
.	.	.	.	16d/JJ)	.	16f/JJ)	.	.	.	.	.	.	.	.	.	.	16ff\JJ)	.
*	*	*	*	*Xrep	*	*	*	*	*	*	*	*	*	*	*	*	*	*
=2	=2	=2	=2	=2	=2	=2	=2	=2	=2	=2	=2	=2	=2	=2	=2	=2	=2	=2
!	!	!	!	!LO:SIC:o=16A/LL	!	!	!	!	!	!	!	!	!	!	!	!	!	!
8A\	.	8F/	.	(16ALL	.	(16c/LL	.	2ryy	2ryy	2ryy	2r	.	.	2ryy	2ryy	2ryy	[4ff\	.
.	.	.	.	16c/	.	16e-/	.	.	.	.	.	.	.	.	.	.	.	.
8r	.	8r	.	16A/	.	16c/	.	.	.	.	.	.	.	.	.	.	.	.
!	!	!	!	!LO:SIC:o=16c/JJ	!	!	!	!	!	!	!	!	!	!	!	!	!	!
.	.	.	.	16cJJ)	.	16e-/JJ)	.	.	.	.	.	.	.	.	.	.	.	.
*	*	*	*	*rep	*	*	*	*	*	*	*	*	*	*	*	*	*	*
!	!	!	!	!LO:SIC:o=16A/LL	!	!	!	!	!	!	!	!	!	!	!	!	!	!
8F\	.	8F/	.	(16ALL	.	(16c/LL	.	.	.	.	.	.	.	.	.	.	16ff\LL]	.
.	.	.	.	16c/	.	16e-/	.	.	.	.	.	.	.	.	.	.	16dd\	.
8r	.	8r	.	16A/	.	16c/	.	.	.	.	.	.	.	.	.	.	16ee-\	.
!	!	!	!	!LO:SIC:o=16c/JJ	!	!	!	!	!	!	!	!	!	!	!	!	!	!
.	.	.	.	16cJJ)	.	16e-/JJ)	.	.	.	.	.	.	.	.	.	.	16a|\JJ	.
*	*	*	*	*Xrep	*	*	*	*	*	*	*	*	*	*	*	*	*	*
=3	=3	=3	=3	=3	=3	=3	=3	=3	=3	=3	=3	=3	=3	=3	=3	=3	=3	=3
8r	.	8B-/	.	(16B-/LL	.	(16d/LL	.	2ryy	2ryy	2ryy	2r	.	.	2ryy	2ryy	2ryy	(16cc\LL	.
.	.	.	.	16d/	.	16f/	.	.	.	.	.	.	.	.	.	.	16b-\J)	.
8F\L|	.	8r	.	16B-/	.	16b-/	.	.	.	.	.	.	.	.	.	.	8b-\J	.
.	.	.	.	16d/JJ)	.	16f/JJ)	.	.	.	.	.	.	.	.	.	.	.	.
*	*	*	*	*rep	*	*	*	*	*	*	*	*	*	*	*	*	*	*
.	.	.	.	.	.	.	.	.	.	.	.	.	.	.	.	.	8qb-/	.
8D\|	.	8B-/	.	(16B-/LL	.	(16b-/LL	.	.	.	.	.	.	.	.	.	.	(8.bb-\L	.
.	.	.	.	16d/	.	16f/	.	.	.	.	.	.	.	.	.	.	.	.
8BB-|\J	.	8r	.	16B-/	.	16b-/	.	.	.	.	.	.	.	.	.	.	.	.
!	!	!	!	!	!	!	!	!	!	!	!	!	!	!	!	!	!	!LO:MO:null:mod=.
.	.	.	.	16d/JJ)	.	16f/JJ)	.	.	.	.	.	.	.	.	.	.	16aa\Jk)	rf
*	*	*	*	*Xrep	*	*	*	*	*	*	*	*	*	*	*	*	*	*
=4	=4	=4	=4	=4	=4	=4	=4	=4	=4	=4	=4	=4	=4	=4	=4	=4	=4	=4
!	!	!	!	!LO:SIC:o=16e-/LL	!	!	!	!	!	!	!	!	!	!	!	!	!	!LO:MO:null:mod=rf
8E-\|	.	8B-/	.	(16e-LL	.	(16b-/LL	.	2ryy	2ryy	2ryy	2r	.	.	2ryy	2ryy	2ryy	(16ff#X\LL	.
.	.	.	.	16B-/	.	16g/	.	.	.	.	.	.	.	.	.	.	16gg\JJ)	.
8r	.	8r	.	16e-/	.	16b-/	.	.	.	.	.	.	.	.	.	.	16r	.
*	*	*	*	*custos:a	*	*	*	*	*	*	*	*	*	*	*	*	*	*
!	!	!	!	!LO:SIC:o=16B-/JJ	!	!	!	!	!	!	!	!	!	!	!	!	!	!
.	.	.	.	16B-JJ)	.	16g/JJ)	.	.	.	.	.	.	.	.	.	.	16gg'\	.
!	!	!LO:TX:t=P:problem=mixed beam	!LO:SIC:o==5	!LO:LB:g=original	!	!	!	!	!	!	!	!	!	!	!	!	!	!
!	!	!	!	!LO:SIC:o=16c/LL	!	!	!	!	!	!	!	!	!	!	!	!	!	!
8F\|	.	8f\L	.	(16cLL	.	(16a/LL	.	.	.	.	.	.	.	.	.	.	(16gg\LL	.
.	.	.	.	16e-/	.	16cc/	.	.	.	.	.	.	.	.	.	.	16ff\	.
8r	.	8F/J	.	16c/	.	16a/	.	.	.	.	.	.	.	.	.	.	16cc\	.
!	!	!	!	!LO:SIC:o=16e-/JJ	!	!	!	!	!	!	!	!	!	!	!	!	!	!
.	.	.	.	16e-JJ)	.	16cc/JJ)	.	.	.	.	.	.	.	.	.	.	16ff\JJ)	.
=5	=5	=5	(16cLL	=5	=5	=5	=5	=5	=5	=5	=5	=5	=5	=5	=5	=5	=5	=5
!LO:LB:g=original	!	!	!	!LO:SIC:o=16d/LL	!	!	!	!	!	!	!	!	!	!	!	!	!LO:LB:g=original	!
8B-\|	.	8B-/	.	(16dLL	.	(16f/LL	.	2ryy	2ryy	2ryy	2r	.	.	2ryy	2ryy	2ryy	(32ee-\LLL	.
.	.	.	.	.	.	.	.	.	.	.	.	.	.	.	.	.	32dd\	.
.	.	.	.	16f/	.	16b-/	.	.	.	.	.	.	.	.	.	.	32cc\	.
.	.	.	.	.	.	.	.	.	.	.	.	.	.	.	.	.	32b-\JJJ)	.
8r	.	8r	.	16d/	.	16f/	.	.	.	.	.	.	.	.	.	.	(32a\LLL	.
.	.	.	.	.	.	.	.	.	.	.	.	.	.	.	.	.	32b-\	.
!	!	!	!	!LO:SIC:o=16f/JJ	!	!	!	!	!	!	!	!	!	!	!	!	!	!
.	.	.	.	16fJJ)	.	16b-/JJ)	.	.	.	.	.	.	.	.	.	.	32cc\)	.
.	.	.	.	.	.	.	.	.	.	.	.	.	.	.	.	.	32b-\JJJ	.
!	!	!	!	!	!	!	!	!	!	!	!	!	!	!	!	!	!	!LO:DY:t=rf.
!	!	!	!	!	!	!	!	!	!	!	!	!	!	!	!	!	!	!LO:MO:null:mod=.
.	.	.	.	.	.	.	.	.	.	.	.	.	.	.	.	.	8qb-/	rf
!	!	!	!	!LO:SIC:o=16B-/LL	!	!	!	!	!	!	!	!	!	!	!	!	!	!LO:MO:null:mod=rf
8D\|	.	8B-/ 8d/	.	(16B-LL	.	(16f/LL	.	.	.	.	.	.	.	.	.	.	8.bb-\L	.
.	.	.	.	16f/	.	16b-/	.	.	.	.	.	.	.	.	.	.	.	.
8r	.	8r	.	16B-/	.	16f/	.	.	.	.	.	.	.	.	.	.	.	.
!	!	!	!	!LO:SIC:o=16f/JJ	!	!	!	!	!	!	!	!	!	!	!	!	!	!
.	.	.	.	16fJJ)	.	16b-/JJ)	.	.	.	.	.	.	.	.	.	.	(32aa\LL	.
.	.	.	.	.	.	.	.	.	.	.	.	.	.	.	.	.	32gg\JJJ)	.
=6	=6	=6	=6	=6	=6	=6	=6	=6	=6	=6	=6	=6	=6	=6	=6	=6	=6	=6
!	!	!LO:TX:t=P:problem=mixed beam	!	!	!	!LO:LB:g=original	!	!	!	!	!	!	!	!	!	!	!	!
!	!	!LO:LB:g=original	!	!LO:SIC:o=16B-/LL	!	!	!	!	!	!	!	!	!	!	!	!	!	!
8E-\L|	.	8e-\L	.	(16B-LL	.	(16g/LL	.	2ryy	2ryy	2ryy	2r	.	.	2ryy	2ryy	2ryy	(32ff#X\LLL	.
.	.	.	.	.	.	.	.	.	.	.	.	.	.	.	.	.	32gg\	.
.	.	.	.	16g/	.	16b-/	.	.	.	.	.	.	.	.	.	.	32aa\	.
.	.	.	.	.	.	.	.	.	.	.	.	.	.	.	.	.	32gg\JJJ	.
8E-\J|	.	8e-\	.	16B-/	.	16g/	.	.	.	.	.	.	.	.	.	.	32bb-\LLL	.
.	.	.	.	.	.	.	.	.	.	.	.	.	.	.	.	.	32gg\	.
!	!	!	!	!LO:SIC:o=16g/JJ	!	!	!	!	!	!	!	!	!	!	!	!	!LO:SIC:v:o=32ff#\)	!
.	.	.	.	16gJJ)	.	16b-/JJ)	.	.	.	.	.	.	.	.	.	.	32ff	.
.	.	.	.	.	.	.	.	.	.	.	.	.	.	.	.	.	32ee-\JJJ	.
!LO:TX:t=P:problem=mixed beam	!	!	!LO:SIC:o==7	!	!	!	!	!	!	!	!	!	!	!	!	!	!	!
8F\L|	.	8f\	.	16d/LL	.	(16b-/LL	.	.	.	.	.	.	.	.	.	.	(16dd\LL	.
.	.	.	.	16f/	.	16dd/JJ)	.	.	.	.	.	.	.	.	.	.	16ff\JJ)	.
.	.	.	.	.	.	8qdd/	.	.	.	.	.	.	.	.	.	.	.	.
8FF/J|	.	8F/J	.	16e-/	.	(32cc/LLL	.	.	.	.	.	.	.	.	.	.	(32ee-\LLL	.
.	.	.	.	.	.	32b-/	.	.	.	.	.	.	.	.	.	.	32dd\	.
!	!	!	!	!LO:SIC:o=16f/JJ	!	!	!	!	!	!	!	!	!	!	!	!	!	!
.	.	.	.	16fJJ)	.	32cc/	.	.	.	.	.	.	.	.	.	.	32ee-\	.
.	.	.	.	.	.	32a/JJJ)	.	.	.	.	.	.	.	.	.	.	32cc\JJJ)	.
=7	=7	=7	(16dLL	=7	=7	=7	=7	=7	=7	=7	=7	=7	=7	=7	=7	=7	=7	=7
!	!	!	!LO:MO:mod=!null:null	!	!	!	!	!	!	!	!	!	!	!	!	!	!	!
!	!	!	!LO:HP:t=cres	!	!	!	!	!	!	!	!	!	!	!	!	!	!	!
8BB-/	.	8B-/L	<	16d|/LL	.	(16b-/LL	.	2ryy	2ryy	2ryy	2r	.	.	2ryy	2ryy	2ryy	8b-\	.
!	!	!	!	!LO:SIC:o=(16d|/	!	!	!	!	!	!	!	!	!	!	!	!	!	!
.	.	.	.	16d|	.	16f/)	.	.	.	.	.	.	.	.	.	.	.	.
!	!	!	!	!LO:SIC:o=16f/	!	!	!	!	!	!	!	!	!	!	!	!	!	!
8r	.	8B-/	.	(16f	.	(16dd/	.	.	.	.	.	.	.	.	.	.	8r	.
.	.	.	.	16d/JJ)	.	16b-/JJ)	.	.	.	.	.	.	.	.	.	.	.	.
!	!	!	!LO:DY:t=p.	!	!	!	!	!	!	!	!	!	!	!	!	!	!	!
16r	.	8d/	p	(16B-/LL	.	16f|/LL	.	.	.	.	.	.	.	.	.	.	8r	.
16F/LL|	.	.	.	16d/)	.	16f|/	.	.	.	.	.	.	.	.	.	.	.	.
16D/|	.	8B-/J	.	16d|/	.	16f|/	.	.	.	.	.	.	.	.	.	.	(32ee-\LLL	.
.	.	.	.	.	.	.	.	.	.	.	.	.	.	.	.	.	32dd\	.
16BB-/JJ|	.	.	.	16d'/JJ	.	16f/JJ	.	.	.	.	.	.	.	.	.	.	32cc\	.
.	.	.	.	.	.	.	.	.	.	.	.	.	.	.	.	.	32b-\JJJ)	.
=8	=8	=8	=8	=8	=8	=8	=8	=8	=8	=8	=8	=8	=8	=8	=8	=8	=8	=8
8FF/|	.	8A/L	.	16c'/LL	.	8f/	.	2ryy	2ryy	2ryy	2r	.	.	2ryy	2ryy	2ryy	(32ff\LLL	.
.	.	.	.	.	.	.	.	.	.	.	.	.	.	.	.	.	32ee-\	.
.	.	.	.	(16e-/	.	.	.	.	.	.	.	.	.	.	.	.	32cc\	.
.	.	.	.	.	.	.	.	.	.	.	.	.	.	.	.	.	32a\JJJ)	.
!	!	!	!	!	!	!	!LO:DY:t=rf.	!	!	!	!	!	!	!	!	!	!	!
8r	.	8F/ 8c	.	16A/	.	4ff\	rf	.	.	.	.	.	.	.	.	.	(32f/LLL	.
.	.	.	.	.	.	.	.	.	.	.	.	.	.	.	.	.	32e-/	.
.	.	.	.	16c/JJ)	.	.	.	.	.	.	.	.	.	.	.	.	32c/	.
.	.	.	.	.	.	.	.	.	.	.	.	.	.	.	.	.	32A/JJJ)	.
8AA/|	.	8A/	.	(16f/LL	.	.	.	.	.	.	.	.	.	.	.	.	(32F/LLL	.
.	.	.	.	.	.	.	.	.	.	.	.	.	.	.	.	.	32A/	.
.	.	.	.	16a/	.	.	.	.	.	.	.	.	.	.	.	.	32c/	.
.	.	.	.	.	.	.	.	.	.	.	.	.	.	.	.	.	32f/JJJ)	.
8r	.	8E-/J	.	16c/	.	8a/	.	.	.	.	.	.	.	.	.	.	(32a\LLL	.
.	.	.	.	.	.	.	.	.	.	.	.	.	.	.	.	.	32cc\	.
.	.	.	.	16f/JJ)	.	.	.	.	.	.	.	.	.	.	.	.	32ff\	.
.	.	.	.	.	.	.	.	.	.	.	.	.	.	.	.	.	32ee-\JJJ)	.
=9	=9	=9	=9	=9	=9	=9	=9	=9	=9	=9	=9	=9	=9	=9	=9	=9	=9	=9
!	!	!	!	!	!	!	!	!	!	!	!	!	!	!	!	!	!LO:LB:g=original	!
8BB-/||<	.	8D/L	.	(16d/LL	.	8.b-/L	.	2ryy	2ryy	2ryy	2r	.	.	2ryy	2ryy	2ryy	32dd\LLL	.
.	.	.	.	.	.	.	.	.	.	.	.	.	.	.	.	.	32bb-\	.
.	.	.	.	16f/	.	.	.	.	.	.	.	.	.	.	.	.	32aa\	.
.	.	.	.	.	.	.	.	.	.	.	.	.	.	.	.	.	32bb-\JJJ	.
8r	.	8B-/	.	16d/	.	.	.	.	.	.	.	.	.	.	.	.	32ddd\LLL	.
.	.	.	.	.	.	.	.	.	.	.	.	.	.	.	.	.	32bb-\	.
.	.	.	.	16f/JJ)	.	16f/K	.	.	.	.	.	.	.	.	.	.	32ff\	.
.	.	.	.	.	.	.	.	.	.	.	.	.	.	.	.	.	32dd\JJJ	.
*	*	*	*	*rep	*	*	*	*	*	*	*	*	*	*	*	*	*	*
8D\|	.	8F/	.	(16d/LL	.	8.dd/	.	.	.	.	.	.	.	.	.	.	32b-/LLL	.
.	.	.	.	.	.	.	.	.	.	.	.	.	.	.	.	.	32f/	.
.	.	.	.	16f/	.	.	.	.	.	.	.	.	.	.	.	.	32d/	.
.	.	.	.	.	.	.	.	.	.	.	.	.	.	.	.	.	32B-/JJJ	.
8r	.	8B-/J	.	16d/	.	.	.	.	.	.	.	.	.	.	.	.	32d/LLL	.
.	.	.	.	.	.	.	.	.	.	.	.	.	.	.	.	.	32B-/	.
.	.	.	.	16f/JJ)	.	16b-/Jk	.	.	.	.	.	.	.	.	.	.	32F/	.
.	.	.	.	.	.	.	.	.	.	.	.	.	.	.	.	.	32D/JJJ	.
*	*	*	*	*Xrep	*	*	*	*	*	*	*	*	*	*	*	*	*	*
=10	=10	=10	=10	=10	=10	=10	=10	=10	=10	=10	=10	=10	=10	=10	=10	=10	=10	=10
8F\|	.	8A/L	.	16c/LL	.	16a\LL	.	2ryy	2ryy	2ryy	2r	.	.	2ryy	2ryy	2ryy	32F/LLL	.
.	.	.	.	.	.	.	.	.	.	.	.	.	.	.	.	.	32A/	.
.	.	.	.	16e-/	.	16ff\JJ	.	.	.	.	.	.	.	.	.	.	32c/	.
.	.	.	.	.	.	.	.	.	.	.	.	.	.	.	.	.	32f/JJJ	.
8r	.	8c/	.	16c/	.	4ff\	.	.	.	.	.	.	.	.	.	.	32a\LLL	.
.	.	.	.	.	.	.	.	.	.	.	.	.	.	.	.	.	32cc\	.
*	*	*	*	*custos:a	*	*	*	*	*	*	*	*	*	*	*	*	*	*
.	.	.	.	16e-/JJ	.	.	.	.	.	.	.	.	.	.	.	.	32ff\	.
.	.	.	.	.	.	.	.	.	.	.	.	.	.	.	.	.	32cc\JJJ	.
!	!	!	!	!LO:LB:g=original	!	!	!	!	!	!	!	!	!	!	!	!	!	!
8F\|	.	8A/	.	16c/LL	.	.	.	.	.	.	.	.	.	.	.	.	32aa\LLL	.
.	.	.	.	.	.	.	.	.	.	.	.	.	.	.	.	.	32ff\	.
.	.	.	.	16e-/	.	.	.	.	.	.	.	.	.	.	.	.	32ccc\	.
.	.	.	.	.	.	.	.	.	.	.	.	.	.	.	.	.	32bb-\JJJ	.
8r	.	8F/J	.	16c/	.	8a/	.	.	.	.	.	.	.	.	.	.	32aa\LLL	.
.	.	.	.	.	.	.	.	.	.	.	.	.	.	.	.	.	32gg\	.
.	.	.	.	16e-/JJ	.	.	.	.	.	.	.	.	.	.	.	.	32ff\	.
.	.	.	.	.	.	.	.	.	.	.	.	.	.	.	.	.	32ee-\JJJ	.
=11	=11	=11	=11	=11	=11	=11	=11	=11	=11	=11	=11	=11	=11	=11	=11	=11	=11	=11
!LO:LB:g=original	!	!	!	!	!	!	!	!	!	!	!	!	!	!	!	!	!	!
8D|\	.	8D/	.	8f/	.	8b-\	.	2ryy	2ryy	2ryy	2r	.	.	2ryy	2ryy	2ryy	(32dd\LLL	.
.	.	.	.	.	.	.	.	.	.	.	.	.	.	.	.	.	32bb-\	.
.	.	.	.	.	.	.	.	.	.	.	.	.	.	.	.	.	32eeX\	.
.	.	.	.	.	.	.	.	.	.	.	.	.	.	.	.	.	32ff\JJJ)	.
8r	.	8r	.	8r	.	8r	.	.	.	.	.	.	.	.	.	.	(32cc#X\LLL	.
.	.	.	.	.	.	.	.	.	.	.	.	.	.	.	.	.	32dd\	.
.	.	.	.	.	.	.	.	.	.	.	.	.	.	.	.	.	32a\	.
.	.	.	.	.	.	.	.	.	.	.	.	.	.	.	.	.	32b-\JJJ)	.
8E-|\	.	8E-/	.	8g/	.	8cc\	.	.	.	.	.	.	.	.	.	.	(32bX\LLL	.
!	!	!	!	!	!	!	!	!	!	!	!	!	!	!	!	!	!LO:SIC:v:o=32cc#\	!
.	.	.	.	.	.	.	.	.	.	.	.	.	.	.	.	.	32cc	.
.	.	.	.	.	.	.	.	.	.	.	.	.	.	.	.	.	32ff#X\	.
.	.	.	.	.	.	.	.	.	.	.	.	.	.	.	.	.	32gg\JJJ)	.
8r	.	8r	.	8r	.	8r	.	.	.	.	.	.	.	.	.	.	(32dd\LLL	.
.	.	.	.	.	.	.	.	.	.	.	.	.	.	.	.	.	32ee-\	.
.	.	.	.	.	.	.	.	.	.	.	.	.	.	.	.	.	32bX\	.
!	!	!	!	!	!	!	!	!	!	!	!	!	!	!	!	!	!LO:SIC:v:o=32cc#\JJJ)	!
.	.	.	.	.	.	.	.	.	.	.	.	.	.	.	.	.	32ccJJJ	.
=12	=12	=12	=12	=12	=12	=12	=12	=12	=12	=12	=12	=12	=12	=12	=12	=12	=12	=12
!	!	!	!	!	!	!LO:LB:g=original	!	!	!	!	!	!	!	!	!	!	!LO:LB:g=original	!
8F\	.	8F/	.	8b-\	.	8dd\	.	2ryy	2ryy	2ryy	2r	.	.	2ryy	2ryy	2ryy	16.ff\LL	.
!	!	!	!	!	!	!	!	!	!	!	!	!	!	!	!	!	!	!LO:DY:t=fp.
!	!	!	!	!	!	!	!	!	!	!	!	!	!	!	!	!	!	!LO:MO:null:mod=.
.	.	.	.	.	.	.	.	.	.	.	.	.	.	.	.	.	32ff\JJk	fp
!	!	!	!	!	!	!	!	!	!	!	!	!	!	!	!	!	!	!LO:MO:null:mod=fp
8r	.	8r	.	8r	.	8r	.	.	.	.	.	.	.	.	.	.	(32gg\LLL	.
.	.	.	.	.	.	.	.	.	.	.	.	.	.	.	.	.	32gg\	.
.	.	.	.	.	.	.	.	.	.	.	.	.	.	.	.	.	32gg\	.
.	.	.	.	.	.	.	.	.	.	.	.	.	.	.	.	.	32ff\JJJ)	.
!	!	!	!	!	!	!	!	!	!	!	!	!	!	!	!	!	!	!LO:MO:mod=!null:null
!	!	!	!	!	!	!	!	!	!	!	!	!	!	!	!	!	!	!LO:HP:t=decresc&colon;
4r	.	4r	.	4r	.	4r	.	.	.	.	.	.	.	.	.	.	(32eeX\LLL	>
.	.	.	.	.	.	.	.	.	.	.	.	.	.	.	.	.	32ff\	.
.	.	.	.	.	.	.	.	.	.	.	.	.	.	.	.	.	32gg-X\	.
.	.	.	.	.	.	.	.	.	.	.	.	.	.	.	.	.	32ff\JJJ	.
.	.	.	.	.	.	.	.	.	.	.	.	.	.	.	.	.	32gg-\LLL	.
.	.	.	.	.	.	.	.	.	.	.	.	.	.	.	.	.	32ff\	.
.	.	.	.	.	.	.	.	.	.	.	.	.	.	.	.	.	32gg-\	.
.	.	.	.	.	.	.	.	.	.	.	.	.	.	.	.	.	32ff\JJJ)	.
=13	=13	=13	=13	=13	=13	=13	=13	=13	=13	=13	=13	=13	=13	=13	=13	=13	=13	=13
!	!	!	!	!	!	!	!	!	!	!	!	!	!	!	!	!	!	!LO:MO:mod=!null:null
!LO:TX:a:t=1.:mod=	!	!LO:TX:a:t=1.:mod=	!	!LO:TX:a:t=1.:mod=	!	!LO:TX:a:t=1.:mod=	!	!	!	!	!	!	!	!	!	!	!	!LO:HP:t=cres
2r	.	2r	.	2r	.	2r	.	2ryy	2ryy	2ryy	2r	.	.	2ryy	2ryy	2ryy	(32eeX\LLL	<
.	.	.	.	.	.	.	.	.	.	.	.	.	.	.	.	.	32ff\	.
.	.	.	.	.	.	.	.	.	.	.	.	.	.	.	.	.	32gg-X\	.
.	.	.	.	.	.	.	.	.	.	.	.	.	.	.	.	.	32ff\JJJ	.
.	.	.	.	.	.	.	.	.	.	.	.	.	.	.	.	.	32gg-\LLL	.
.	.	.	.	.	.	.	.	.	.	.	.	.	.	.	.	.	32ff\	.
.	.	.	.	.	.	.	.	.	.	.	.	.	.	.	.	.	32gg-\	.
.	.	.	.	.	.	.	.	.	.	.	.	.	.	.	.	.	32ff\JJJ)	.
.	.	.	.	.	.	.	.	.	.	.	.	.	.	.	.	.	(32gg\LLL	.
.	.	.	.	.	.	.	.	.	.	.	.	.	.	.	.	.	32ff\	.
.	.	.	.	.	.	.	.	.	.	.	.	.	.	.	.	.	32gg\	.
.	.	.	.	.	.	.	.	.	.	.	.	.	.	.	.	.	32ff\JJJ)	.
.	.	.	.	.	.	.	.	.	.	.	.	.	.	.	.	.	(32bb-\LLL	.
.	.	.	.	.	.	.	.	.	.	.	.	.	.	.	.	.	32ff\	.
.	.	.	.	.	.	.	.	.	.	.	.	.	.	.	.	.	32dd\	.
.	.	.	.	.	.	.	.	.	.	.	.	.	.	.	.	.	32b-\JJJ)	.
=14	=14	=14	=14	=14	=14	=14	=14	=14	=14	=14	=14	=14	=14	=14	=14	=14	=14	=14
*tremolo	*	*	*	*	*	*	*	*	*	*	*	*	*	*	*	*	*	*
*	*	*tremolo	*	*	*	*	*	*	*	*	*	*	*	*	*	*	*	*
!	!	!	!	!	!	!	!	!	!	!	!	!	!	!	!	!	!LO:TX:t=P:problem=2\right&colon; global	!
.	.	.	.	.	.	.	.	.	.	.	.	.	.	.	.	.	8qb-/	.
!	!	!	!	!	!	!	!LO:MO:null:mod=!LO&colon;DY&colon;ed=brack	!	!	!	!	!	!	!	!	!	!	!
!	!LO:DY:t=for.:b	!LO:LB:g=original	!LO:DY:t=for.	!	!LO:DY:t=for.	!	!LO:MO:mod=f	!	!	!	!	!	!	!	!	!	!	!
16F\LL	f	16f\LL	f	16f/LL	f	16b-\LL	<	2ryy	2ryy	2ryy	2r	.	.	2ryy	2ryy	2ryy	2ccT\	.
16F\	.	16f\	.	16f/	.	16b-\	.	.	.	.	.	.	.	.	.	.	.	.
16F\	.	16f\	.	16f/	.	16b-\	.	.	.	.	.	.	.	.	.	.	.	.
16F\JJ	.	16f\JJ	.	16f/JJ	.	16b-\JJ	.	.	.	.	.	.	.	.	.	.	.	.
16FF/LL	.	16F/LL	.	16e-/LL	.	16a\LL	.	.	.	.	.	.	.	.	.	.	.	.
16FF/	.	16F/	.	16e-/	.	16a\	.	.	.	.	.	.	.	.	.	.	.	.
16FF/	.	16F/	.	16e-/	.	16a\	.	.	.	.	.	.	.	.	.	.	.	.
16FF/JJ	.	16F/JJ	.	16e-/JJ	.	16a\JJ	[	.	.	.	.	.	.	.	.	.	.	.
*Xtremolo	*	*Xtremolo	*	*	*	*	*	*	*	*	*	*	*	*	*	*	*	*
.	.	.	.	.	.	.	.	.	.	.	.	.	.	.	.	.	(<32qqb-/LLL	.
.	.	.	.	.	.	.	.	.	.	.	.	.	.	.	.	.	32qqcc/JJJ)	.
=15	=15	=15	=15	=15	=15	=15	=15	=15	=15	=15	=15	=15	=15	=15	=15	=15	=15	=15
!LO:SIC:v:o=8C/	!LO:DY:t=p.:b	!	!	!	!LO:DY:t=p.:rj	!	!LO:DY:t=f.	!	!	!	!	!	!	!	!	!	!	!
!	!	!	!	!	!	!	!LO:MO:mod=p	!	!	!	!	!	!	!	!	!	!	!
8BB-	p	8B-/	.	8d/L	p	8b-/L	f	2ryy	2ryy	2ryy	2r	.	.	2ryy	2ryy	2ryy	8b-\L	.
!	!	!	!	!	!	!	!	!	!	!	!	!	!	!	!	!	!LO:MO:mod=!LO&colon;TX&colon;i&colon;t=dolce	!
!	!	!	!	!	!	!	!	!	!	!	!	!	!	!	!	!	!LO:TX:b:i:t=dolce&colon;	!
8r	.	8r	.	16d/L	.	16f/L	.	.	.	.	.	.	.	.	.	.	(32dd\LL	.
.	.	.	.	.	.	.	.	.	.	.	.	.	.	.	.	.	32ff\	.
!	!	!	!	!	!	!	!LO:DY:t=p.	!	!	!	!	!	!	!	!	!	!	!
!	!	!	!	!	!	!	!LO:MO:null:mod=.	!	!	!	!	!	!	!	!	!	!	!
.	.	.	.	16e-/JJ	.	16g/JJ	p	.	.	.	.	.	.	.	.	.	32ee-\	.
.	.	.	.	.	.	.	.	.	.	.	.	.	.	.	.	.	32gg\JJJ)	.
!	!	!	!	!	!	!	!	!	!	!	!	!	!	!	!	!	!LO:SIC:v:o=8b-\L:t=albo a	!
8F\	.	8F/	.	8A/L	.	8c/L	.	.	.	.	.	.	.	.	.	.	8cc	.
!	!	!	!	!LO:SIC:v:o=16d/L	!	!	!	!	!	!	!	!	!	!	!	!	!	!
8r	.	8r	.	16cL	.	16f/L	.	.	.	.	.	.	.	.	.	.	(32ff\LL	.
.	.	.	.	.	.	.	.	.	.	.	.	.	.	.	.	.	32ee-\	.
!	!	!	!	!LO:SIC:v:o=16d/JJ	!	!	!	!	!	!	!	!	!	!	!	!	!	!
.	.	.	.	16cJJ	.	16e-/JJ	.	.	.	.	.	.	.	.	.	.	32cc\	.
.	.	.	.	.	.	.	.	.	.	.	.	.	.	.	.	.	32dd\JJJ)	.
=16	=16	=16	=16	=16	=16	=16	=16	=16	=16	=16	=16	=16	=16	=16	=16	=16	=16	=16
!	!	!	!	!	!	!	!LO:MO:mod=!null:null	!	!	!	!	!	!	!	!	!	!	!
!	!	!	!	!LO:SIC:o=16B-/LL	!LO:MO:null:mod=<	!	!LO:HP:a	!	!	!	!	!	!	!	!	!	!LO:LB:g=original	!
8BB-/	.	8B-/	.	(16B-LL	.	(16d/LL	<	2ryy	2ryy	2ryy	2r	.	.	2ryy	2ryy	2ryy	(32b-\LLL	<
.	.	.	.	.	.	.	.	.	.	.	.	.	.	.	.	.	32cc\	.
.	.	.	.	16c/	.	16e-/	.	.	.	.	.	.	.	.	.	.	32dd\	.
.	.	.	.	.	.	.	.	.	.	.	.	.	.	.	.	.	32ee-\JJJ	.
8r	.	8r	.	16c#X/	.	16en/	.	.	.	.	.	.	.	.	.	.	32eeX\LLL	.
.	.	.	.	.	.	.	.	.	.	.	.	.	.	.	.	.	32ff\	.
!	!	!	!	!LO:SIC:o=16d/JJ	!	!	!	!	!	!	!	!	!	!	!	!	!LO:SIC:o=32gg\)	!
.	.	.	.	16dJJ)	.	16f/JJ)	.	.	.	.	.	.	.	.	.	.	32gg	.
!	!	!	!	!	!	!	!	!	!	!	!	!	!	!	!	!	!LO:SIC:o=32ff\JJJ	!
.	.	.	.	.	.	.	.	.	.	.	.	.	.	.	.	.	32ffJJJ)	[
!	!	!	!	!	!LO:MO:null:mod=[	!	!	!	!	!	!	!	!	!	!	!	!LO:SIC:o=32a\LLL	!
8F\	.	8F/L	.	16A/LL	.	16c/LL	[	.	.	.	.	.	.	.	.	.	(32aLLL	.
.	.	.	.	.	.	.	.	.	.	.	.	.	.	.	.	.	32b-\	.
!	!	!	!	!LO:SIC:v:o=16c#/	!	!	!	!	!	!	!	!	!	!	!	!	!	!
.	.	.	.	16c	.	16f/	.	.	.	.	.	.	.	.	.	.	32cc\	.
!	!	!	!	!	!	!	!	!	!	!	!	!	!	!	!	!	!LO:SIC:o=32dd\JJJ	!
.	.	.	.	.	.	.	.	.	.	.	.	.	.	.	.	.	32ddJJJ)	.
8r	.	8F/J	.	16A/	.	16e-X/	.	.	.	.	.	.	.	.	.	.	(32ee-\LLL	.
.	.	.	.	.	.	.	.	.	.	.	.	.	.	.	.	.	32cc\	.
!	!	!	!	!LO:SIC:v:o=16c#/JJ	!	!	!	!	!	!	!	!	!	!	!	!	!	!
.	.	.	.	16cJJ	.	16f/JJ	.	.	.	.	.	.	.	.	.	.	32a\	.
.	.	.	.	.	.	.	.	.	.	.	.	.	.	.	.	.	32cc\JJJ)	.
=17	=17	=17	=17	=17	=17	=17	=17	=17	=17	=17	=17	=17	=17	=17	=17	=17	=17	=17
!	!LO:DY:t=for.:b	!	!LO:DY:t=for.	!	!LO:DY:t=for.	!LO:TX:t=P:problem=mixed beam	!LO:DY:t=for.	!	!	!	!	!	!	!	!	!	!	!LO:DY:t=for.
8BB-/L	f	8B-/L	f	8B-/L	f	8d/L	f	2ryy	2ryy	2ryy	2r	.	.	2ryy	2ryy	2ryy	(32b-\LLL	f
.	.	.	.	.	.	.	.	.	.	.	.	.	.	.	.	.	32ff\	.
.	.	.	.	.	.	.	.	.	.	.	.	.	.	.	.	.	32dd\	.
.	.	.	.	.	.	.	.	.	.	.	.	.	.	.	.	.	32b-\JJJ)	.
8BB-/	.	8F/ 8B-	.	8f/	.	8dd\	.	.	.	.	.	.	.	.	.	.	(32f/LLL	.
.	.	.	.	.	.	.	.	.	.	.	.	.	.	.	.	.	32d/	.
.	.	.	.	.	.	.	.	.	.	.	.	.	.	.	.	.	32B-/)	.
.	.	.	.	.	.	.	.	.	.	.	.	.	.	.	.	.	32F/JJJ	.
8BB-/J	.	8F/J 8B-	.	8d/J	.	8b-\J	.	.	.	.	.	.	.	.	.	.	8D/	.
8r	.	8r	.	8r	.	8r	.	.	.	.	.	.	.	.	.	.	8r	.
=18	=18	=18	=18	=18	=18	=18	=18	=18	=18	=18	=18	=18	=18	=18	=18	=18	=18	=18
!	!	!	!	!	!	!	!	!	!	!	!	!	!	!	!	!	!LO:TX:a:t=14:mod=	!
!LO:LB:g=original	!LO:DY:t=p.:b	!	!LO:DY:t=p.	!LO:LB:g=original	!LO:DY:t=pp.	!	!	!	!	!	!LO:TX:a:i:t=solo.:mod=Solo	!	!	!	!	!	!LO:TX:b:t=14.:mod=	!
!	!	!LO:SIC:o=16F/LL	!LO:MO:mod=pp	!LO:SIC:o=16d/LL	!	!	!	!	!	!	!	!	!	!	!	!	!	!
8BB-/	p	(16FLL	p	(16dLL	pp	16r	.	2ryy	2ryy	2ryy	[4b-\	Be-	.	2ryy	2ryy	2ryy	2r	.
!	!	!LO:SIC:o=16d/JJ	!	!LO:SIC:o=16f/JJ	!	!	!LO:DY:a:t=pp.	!	!	!	!	!	!	!	!	!	!	!
.	.	16dJJ)	.	16fJJ)	.	16b-\LL	pp	.	.	.	.	.	.	.	.	.	.	.
8r	.	16r	.	16r	.	16b-\	.	.	.	.	.	.	.	.	.	.	.	.
*	*	*	*	*	*	*custos:a	*	*	*	*	*	*	*	*	*	*	*	*
.	.	16d\	.	16f/	.	16b-\JJ	.	.	.	.	.	.	.	.	.	.	.	.
!	!	!LO:SIC:o=16F/LL	!	!LO:SIC:o=16f/LL	!	!LO:LB:g=original	!	!	!	!	!	!	!	!	!	!	!	!
8B-\	.	(16FLL	.	16fLL(	.	16r	.	.	.	.	16b-\LL]	.	.	.	.	.	.	.
!	!	!LO:SIC:o=16d/JJ	!	!LO:SIC:o=16d/JJ	!	!	!	!	!	!	!	!	!	!	!	!	!	!
.	.	16dJJ)	.	16dJJ)	.	16b-\LL	.	.	.	.	16dd\JJ	.	.	.	.	.	.	.
8r	.	16r	.	16f/	.	16b-\	.	.	.	.	16gg\LL	-ne-	.	.	.	.	.	.
.	.	16d\	.	16r	.	16b-\JJ	.	.	.	.	16ff\JJ	.	.	.	.	.	.	.
=19	=19	=19	=19	=19	=19	=19	=19	=19	=19	=19	=19	=19	=19	=19	=19	=19	=19	=19
!	!	!LO:SIC:o=16An\LL	!	!	!	!	!	!	!	!	!	!	!	!	!	!	!	!
8A\	.	(16ALL	.	16f/	.	16r	.	2ryy	2ryy	2ryy	8.ff\L	-di-	.	2ryy	2ryy	2ryy	2r	.
!	!	!LO:SIC:o=16c\JJ	!	!	!	!	!	!	!	!	!	!	!	!	!	!	!	!
.	.	16cJJ)	.	16r	.	16a/LL|	.	.	.	.	.	.	.	.	.	.	.	.
8r	.	16r	.	(16c/LL	.	(16a/	.	.	.	.	.	.	.	.	.	.	.	.
.	.	16A\	.	16e-/JJ)	.	16cc/JJ)	.	.	.	.	16cc\Jk	.	.	.	.	.	.	.
!	!	!LO:SIC:o=16A\LL	!	!	!	!	!	!	!	!	!	!	!	!	!	!	!	!
8F\	.	(16ALL	.	16r	.	16r	.	.	.	.	8.ee-\	-ctus	.	.	.	.	.	.
!	!	!LO:SIC:o=16c\JJ	!	!	!	!LO:SIC:o=16ee-'\LL	!	!	!	!	!	!	!	!	!	!	!	!
.	.	16cJJ)	.	(16c/LL	.	16ee-|LL	.	.	.	.	.	.	.	.	.	.	.	.
!	!	!	!	!	!	!LO:SIC:o=16cc\	!	!	!	!	!	!	!	!	!	!	!	!
8r	.	16r	.	16f/JJ)	.	(16cc	.	.	.	.	.	.	.	.	.	.	.	.
!	!	!	!	!	!	!LO:SIC:o=16a\JJ	!	!	!	!	!	!	!	!	!	!	!	!
.	.	16c\	.	16r	.	16aJJ)	.	.	.	.	16a\	qui	.	.	.	.	.	.
=20	=20	=20	=20	=20	=20	=20	=20	=20	=20	=20	=20	=20	=20	=20	=20	=20	=20	=20
!	!	!LO:LB:g=original	!	!	!	!	!	!	!	!	!	!	!	!	!	!	!	!
!	!	!LO:SIC:o=16B-/LL	!	!	!	!	!	!	!	!	!	!	!	!	!	!	!	!
8r	.	(16B-LL	.	(16d/LL	.	16r	.	2ryy	2ryy	2ryy	16cc\LL	ve-	.	2ryy	2ryy	2ryy	2r	.
!	!	!LO:SIC:o=16d/JJ	!	!	!	!	!	!	!	!	!	!	!	!	!	!	!	!
.	.	16dJJ)	.	16f/JJ)	.	16b-\LL|	.	.	.	.	16b-\JJ	.	.	.	.	.	.	.
8F\L	.	16r	.	16r	.	(16dd\	.	.	.	.	8b-\	-nit	.	.	.	.	.	.
.	.	16d/	.	16f/	.	16ff\JJ)	.	.	.	.	.	.	.	.	.	.	.	.
!	!	!LO:SIC:o=16B-/LL	!	!	!	!	!	!	!	!	!	!	!	!	!	!	!	!
8D\	.	(16B-LL	.	(16d/LL	.	16r	.	.	.	.	8r	.	.	.	.	.	.	.
!	!	!LO:SIC:o=16d/JJ	!	!	!	!LO:SIC:o=16bb-'\LL	!	!	!	!	!	!	!	!	!	!	!	!
.	.	16dJJ)	.	16f/JJ)	.	16bb-|LL	.	.	.	.	.	.	.	.	.	.	.	.
8BB-\J	.	16r	.	16r	.	(16ff\	.	.	.	.	8dd\	qui	.	.	.	.	.	.
.	.	16d/	.	16f/	.	16dd\JJ)	.	.	.	.	.	.	.	.	.	.	.	.
=21	=21	=21	=21	=21	=21	=21	=21	=21	=21	=21	=21	=21	=21	=21	=21	=21	=21	=21
8E-\	.	16e-\LL	.	16g/LL	.	16r	.	2ryy	2ryy	2ryy	16bn\LL	ve-	.	2ryy	2ryy	2ryy	2r	.
!	!	!	!	!	!	!LO:SIC:o=16cc'\LL	!	!	!	!	!	!	!	!	!	!	!	!
.	.	16e-\JJ	.	16g/JJ	.	16cc|LL	.	.	.	.	16cc\JJ	.	.	.	.	.	.	.
8r	.	8E-/L	.	16r	.	(16ee-\	.	.	.	.	16ee-\	-nit	.	.	.	.	.	.
.	.	.	.	16e-/	.	16cc\JJ)	.	.	.	.	16cc\	in	.	.	.	.	.	.
!	!	!	!	!	!	!	!	!	!	!	!LO:LB:g=original	!	!	!	!	!	!	!
8F\	.	8F/	.	16r	.	16r	.	.	.	.	16cc\LL	no-	.	.	.	.	.	.
!	!	!	!	!	!	!	!	!	!	!	!LO:SIC:v:o=16b\JJ	!	!	!	!	!	!	!
.	.	.	.	16d/	.	16b-/	.	.	.	.	16b-JJ	.	.	.	.	.	.	.
!	!	!	!	!	!	!	!	!	!	!	!LO:SIC:v:o=16b\	!	!	!	!	!	!	!
8r	.	8F/J	.	16r	.	16r	.	.	.	.	16b-	-mi-	.	.	.	.	.	.
.	.	.	.	16c/ 16e-	.	16a/	.	.	.	.	16a\	-ne	.	.	.	.	.	.
=22	=22	=22	=22	=22	=22	=22	=22	=22	=22	=22	=22	=22	=22	=22	=22	=22	=22	=22
8G\	.	(16B-\LL	.	16d/LL	.	16r	.	2ryy	2ryy	2ryy	16.b-\	Do-	.	2ryy	2ryy	2ryy	2r	.
.	.	16d\JJ)	.	16g/JJ	.	16b-\LL	.	.	.	.	.	.	.	.	.	.	.	.
.	.	.	.	.	.	.	.	.	.	.	32cc\	-mi-	.	.	.	.	.	.
8r	.	16r	.	16r	.	16b-\	.	.	.	.	8dd\	-ni	.	.	.	.	.	.
.	.	16d\	.	16g/	.	16b-\JJ	.	.	.	.	.	.	.	.	.	.	.	.
8D\	.	16d\LL	.	16r	.	16r	.	.	.	.	8r	.	.	.	.	.	.	.
!	!	!	!	!	!	!LO:SIC:o=16bb-'\LL	!	!	!	!	!	!	!	!	!	!	!	!
.	.	16d\JJ	.	16f/	.	16bb-|LL	.	.	.	.	.	.	.	.	.	.	.	.
!	!	!	!	!	!	!LO:SIC:o=16ff\	!	!	!	!	!	!	!	!	!	!	!	!
8r	.	16r	.	16r	.	(16ff	.	.	.	.	16ff\LL	in	.	.	.	.	.	.
!	!	!	!	!	!	!LO:SIC:o=16dd\JJ	!	!	!	!	!	!	!	!	!	!	!	!
.	.	16d\	.	16f/	.	16ddJJ)	.	.	.	.	16dd\JJ	.	.	.	.	.	.	.
=23	=23	=23	=23	=23	=23	=23	=23	=23	=23	=23	=23	=23	=23	=23	=23	=23	=23	=23
!LO:TX:t=P:problem=mixed beam	!	!	!	!LO:LB:g=original	!	!LO:LB:g=original	!	!	!	!	!	!	!	!	!	!	!	!
8E-\L	.	8c/L	.	(16g/LL	.	16r	.	2ryy	2ryy	2ryy	16dd\LL	no-	.	2ryy	2ryy	2ryy	2r	.
!	!	!	!	!	!	!LO:SIC:o=16gg'\LL	!	!	!	!	!	!	!	!	!	!	!	!
.	.	.	.	16e-/JJ)	.	16gg|LL	.	.	.	.	16cc\JJ	.	.	.	.	.	.	.
8E-\	.	8G/	.	16r	.	(16ee-\	.	.	.	.	16ee-\	-mi-	.	.	.	.	.	.
.	.	.	.	16e-/	.	16cc\JJ)	.	.	.	.	16cc\	-ne	.	.	.	.	.	.
8F\	.	8F/	.	8d/L	.	16r	.	.	.	.	8b-\	Do-	.	.	.	.	.	.
.	.	.	.	.	.	16b-/	.	.	.	.	.	.	.	.	.	.	.	.
8FF/J	.	8E-/J	.	8c/J	.	16r	.	.	.	.	8a\	-mi-	.	.	.	.	.	.
.	.	.	.	.	.	16a/	.	.	.	.	.	.	.	.	.	.	.	.
=24	=24	=24	=24	=24	=24	=24	=24	=24	=24	=24	=24	=24	=24	=24	=24	=24	=24	=24
!LO:TX:t=P:problem=mixed beam	!	!	!LO:DY:t=p.	!	!	!	!	!	!	!	!	!	!	!	!	!	!	!
8BB-/L	.	8F/L	p	8d/L	.	16r	.	2ryy	2ryy	2ryy	4b-\	-ni	.	2ryy	2ryy	2ryy	2r	.
.	.	.	.	.	.	16b-/LL	.	.	.	.	.	.	.	.	.	.	.	.
8B-\	.	8F'/	.	8f/	.	(16f/	.	.	.	.	.	.	.	.	.	.	.	.
.	.	.	.	.	.	16dd/JJ)	.	.	.	.	.	.	.	.	.	.	.	.
8BB-/J	.	8F'/J	.	8d/J	.	8b-/	.	.	.	.	8r	.	.	.	.	.	.	.
8r	.	8r	.	8r	.	8r	.	.	.	.	16dd\	be-	.	.	.	.	.	.
.	.	.	.	.	.	.	.	.	.	.	16dd\	-ne-	.	.	.	.	.	.
=25	=25	=25	=25	=25	=25	=25	=25	=25	=25	=25	=25	=25	=25	=25	=25	=25	=25	=25
!LO:PB:g=original	!	!	!	!	!	!	!LO:DY:t=p.:a	!	!	!	!	!	!	!	!	!	!	!
!	!	!	!	!	!	!	!LO:MO:null:mod=.	!	!	!	!	!	!	!	!	!	!	!
8BB-/	.	(16F/LL	.	(16d/LL	.	16r	p	2ryy	2ryy	2ryy	4dd\	-di-	.	2ryy	2ryy	2ryy	2r	.
.	.	16d/JJ)	.	16f/JJ)	.	16f/LL	.	.	.	.	.	.	.	.	.	.	.	.
8r	.	16r	.	16r	.	16b-/	.	.	.	.	.	.	.	.	.	.	.	.
!	!	!	!	!LO:SIC:o=(16f/LL	!	!	!	!	!	!	!	!	!	!	!	!	!	!
.	.	16d\	.	16f	.	16dd/JJ	.	.	.	.	.	.	.	.	.	.	.	.
!	!	!	!	!LO:SIC:o=16d/	!	!	!	!	!	!	!	!	!	!	!	!	!	!
8B-\	.	(16F/LL	.	(16dLL	.	8ff\	.	.	.	.	8b-\	-ctus	.	.	.	.	.	.
.	.	16d/JJ)	.	16f/JJ)	.	.	.	.	.	.	.	.	.	.	.	.	.	.
8r	.	16r	.	16r	.	8r	.	.	.	.	16r	.	.	.	.	.	.	.
.	.	16d\	.	16f/	.	.	.	.	.	.	16dd\	qui	.	.	.	.	.	.
=26	=26	=26	=26	=26	=26	=26	=26	=26	=26	=26	=26	=26	=26	=26	=26	=26	=26	=26
!	!	!LO:LB:g=original	!	!	!	!	!	!	!	!	!LO:LB:g=original	!	!	!	!	!	!	!
8A\	.	(16A/LL	.	(16c/LL	.	16r	.	2ryy	2ryy	2ryy	(16cc\LL	ve-	.	2ryy	2ryy	2ryy	2r	.
.	.	16c/JJ)	.	16f/JJ)	.	16f/LL	.	.	.	.	16ff\J	.	.	.	.	.	.	.
8r	.	16r	.	16r	.	16a/	.	.	.	.	8.ff\J	.	.	.	.	.	.	.
.	.	16A/	.	16f/	.	16cc/JJ	.	.	.	.	.	.	.	.	.	.	.	.
8A\	.	(16A/LL	.	(16c/LL	.	8ff\	.	.	.	.	.	.	.	.	.	.	.	.
.	.	16c/JJ)	.	16f/JJ)	.	.	.	.	.	.	16een\LL	.	.	.	.	.	.	.
8r	.	16r	.	16r	.	8r	.	.	.	.	16dd\	.	.	.	.	.	.	.
.	.	16A/	.	16f/	.	.	.	.	.	.	16cc\JJ	.	.	.	.	.	.	.
=27	=27	=27	=27	=27	=27	=27	=27	=27	=27	=27	=27	=27	=27	=27	=27	=27	=27	=27
8G\	.	(16G/LL	.	(16c/LL	.	16r	.	2ryy	2ryy	2ryy	8.cc\L	.	.	2ryy	2ryy	2ryy	2r	.
.	.	16B-/JJ)	.	16en/JJ)	.	16cc\LL	.	.	.	.	.	.	.	.	.	.	.	.
8r	.	16r	.	16r	.	16een\	.	.	.	.	.	.	.	.	.	.	.	.
.	.	16B-/	.	16e/	.	16gg\JJ	.	.	.	.	16dd\Jk	.	.	.	.	.	.	.
8C/	.	(16G/LL	.	(16c/LL	.	8bb-\	.	.	.	.	16cc\LL	.	.	.	.	.	.	.
.	.	16B-/JJ)	.	16e/JJ)	.	.	.	.	.	.	16b-\	.	.	.	.	.	.	.
!	!	!	!	!	!	!	!	!	!	!	!LO:SIC:o=16a\)	!	!	!	!	!	!	!
8r	.	16r	.	16r	.	8r	.	.	.	.	16a	.	.	.	.	.	.	.
!	!	!	!	!	!	!	!	!	!	!	!LO:SIC:o=16b-\JJ	!	!	!	!	!	!	!
.	.	16B-/	.	16e/	.	.	.	.	.	.	16b-JJ)	.	.	.	.	.	.	.
=28	=28	=28	=28	=28	=28	=28	=28	=28	=28	=28	=28	=28	=28	=28	=28	=28	=28	=28
.	.	.	.	.	.	.	.	.	.	.	16qqb-/	.	.	.	.	.	.	.
!	!	!	!	!LO:LB:g=original	!	!	!	!	!	!	!	!	!	!	!	!	!	!
8F\	.	(16A/LL	.	(16c/LL	.	16r	.	2ryy	2ryy	2ryy	4a\	-nit	.	2ryy	2ryy	2ryy	2r	.
.	.	16c/JJ)	.	16en/JJ)	.	16a\LL	.	.	.	.	.	.	.	.	.	.	.	.
8r	.	16r	.	16r	.	16cc\	.	.	.	.	.	.	.	.	.	.	.	.
.	.	16A/	.	16f/	.	16ff\JJ	.	.	.	.	.	.	.	.	.	.	.	.
8A\	.	16c#X/LL	.	(16en/LL	.	8aa\	.	.	.	.	8r	.	.	.	.	.	.	.
!	!	!LO:SIC:v:o=16e-/JJ	!	!	!	!	!	!	!	!	!	!	!	!	!	!	!	!
.	.	16eJJ	.	16g/JJ)	.	.	.	.	.	.	.	.	.	.	.	.	.	.
8r	.	16r	.	16r	.	8r	.	.	.	.	16cc#X\	be-	.	.	.	.	.	.
!	!	!LO:SIC:v:o=16e-\	!	!	!	!	!	!	!	!	!	!	!	!	!	!	!	!
.	.	16e	.	16g/	.	.	.	.	.	.	16cc#\	-ne-	.	.	.	.	.	.
=29	=29	=29	=29	=29	=29	=29	=29	=29	=29	=29	=29	=29	=29	=29	=29	=29	=29	=29
!	!	!	!	!	!	!LO:LB:g=original	!	!	!	!	!	!	!	!	!	!	!	!
8D\	.	(16d\LL	.	(16f/LL	.	16r	.	2ryy	2ryy	2ryy	16een\LL	-di-	.	2ryy	2ryy	2ryy	2r	.
.	.	16f\JJ)	.	16a/JJ)	.	16aa\LL	.	.	.	.	16dd\JJ	.	.	.	.	.	.	.
8r	.	16r	.	16r	.	16ff\	.	.	.	.	8dd\	-ctus	.	.	.	.	.	.
.	.	16A/	.	16f/	.	16dd\JJ	.	.	.	.	.	.	.	.	.	.	.	.
8G\	.	(16Bn/LL	.	(16d/LL	.	8bn\	.	.	.	.	8r	.	.	.	.	.	.	.
.	.	16d/JJ)	.	16f/JJ)	.	.	.	.	.	.	.	.	.	.	.	.	.	.
8r	.	16r	.	16r	.	8r	.	.	.	.	16bn\	be-	.	.	.	.	.	.
.	.	16d\	.	16f/	.	.	.	.	.	.	16b\	-ne-	.	.	.	.	.	.
=30	=30	=30	=30	=30	=30	=30	=30	=30	=30	=30	=30	=30	=30	=30	=30	=30	=30	=30
8C/	.	(16c\LL	.	(16e-/LL	.	16r	.	2ryy	2ryy	2ryy	16dd\LL	-di-	.	2ryy	2ryy	2ryy	2r	.
.	.	16en\JJ)	.	16g/JJ)	.	16gg\LL	.	.	.	.	16ccn\JJ	.	.	.	.	.	.	.
!	!	!LO:N:vis=16	!	!	!	!	!	!	!	!	!	!	!	!	!	!	!	!
8r	.	8r	.	16r	.	16ee-\	.	.	.	.	8cc\	-ctus	.	.	.	.	.	.
.	.	.	.	16e-/	.	16cc\JJ	.	.	.	.	.	.	.	.	.	.	.	.
8G\	.	(16F/LL	.	(16d/LL	.	8bn\	.	.	.	.	8r	.	.	.	.	.	.	.
*	*	*custos:B	*	*	*	*	*	*	*	*	*	*	*	*	*	*	*	*
.	.	16D/JJ)	.	16f/JJ)	.	.	.	.	.	.	.	.	.	.	.	.	.	.
!	!	!LO:LB:g=original	!	!	!	!	!	!	!	!	!	!	!	!	!	!	!	!
8r	.	16r	.	16r	.	8r	.	.	.	.	16ff\LL	qui	.	.	.	.	.	.
.	.	16d\	.	16f/	.	.	.	.	.	.	16bn\JJ	.	.	.	.	.	.	.
=31	=31	=31	=31	=31	=31	=31	=31	=31	=31	=31	=31	=31	=31	=31	=31	=31	=31	=31
!	!LO:MO:null:mod=!LO&colon;DY&colon;ed=brack	!	!	!	!	!	!	!	!	!	!	!	!	!	!	!	!	!
!	!LO:MO:null:mod=f	!	!LO:DY:t=for.	!	!LO:DY:t=for.	!	!	!	!	!	!LO:LB:g=original	!	!	!	!	!	!	!
8C/	.	8c/L	f	8G/L 8en	f	16r	.	2ryy	2ryy	2ryy	16dd\LL	ve-	.	2ryy	2ryy	2ryy	2r	.
!	!	!	!	!	!	!	!LO:DY:t=for.	!	!	!	!	!	!	!	!	!	!	!
.	.	.	.	.	.	16cc\LL	f	.	.	.	16cc\JJ	.	.	.	.	.	.	.
8r	.	8C/ 8c	.	8G/ 8e	.	16een\	.	.	.	.	8cc\	-nit	.	.	.	.	.	.
.	.	.	.	.	.	16gg\JJ	.	.	.	.	.	.	.	.	.	.	.	.
!	!	!	!	!	!	!	!	!	!	!	!	!	!LO:MO:mod=!null:null	!	!	!	!	!
!	!	!	!	!	!	!	!	!	!	!	!	!	!LO:HP:a:t=decres.	!	!	!	!	!
4r	.	8C/J 8c	.	8G/J 8e	.	8ccc\	.	.	.	.	8cc\	be-	>	.	.	.	.	.
.	.	8r	.	8r	.	8r	.	.	.	.	8cc\	-ne-	.	.	.	.	.	.
=32	=32	=32	=32	=32	=32	=32	=32	=32	=32	=32	=32	=32	=32	=32	=32	=32	=32	=32
!	!	!	!LO:MO:null:mod=!LO&colon;DY&colon;ed=brack	!	!	!	!LO:MO:null:mod=!LO&colon;DY&colon;ed=brack	!	!	!	!	!	!	!	!	!	!	!
!	!	!	!	!	!	!LO:MO:mod=!LO&colon;TX&colon;i&colon;t=dolce	!	!	!	!	!	!	!	!	!	!	!LO:MO:mod=!LO&colon;TX&colon;i&colon;t=Solo	!
!LO:LB:g=original	!LO:MO:null:mod=p	!	!LO:MO:null:mod=p	!LO:SIC:o=16B-/LL	!LO:DY:t=p.	!LO:TX:b:i:t=dolce.	!LO:MO:null:mod=p	!	!	!	!	!	!	!	!	!	!LO:TX:b:i:t=Solo.	!
8C\	.	(16G/LL	.	(16B-LL	p	8.een\L	.	2ryy	2ryy	2ryy	4cc\	-di-	.	2ryy	2ryy	2ryy	(32bb-\LLL	.
.	.	.	.	.	.	.	.	.	.	.	.	.	.	.	.	.	32gg\	.
.	.	16B-/	.	16c/	.	.	.	.	.	.	.	.	.	.	.	.	32eeX\	.
.	.	.	.	.	.	.	.	.	.	.	.	.	.	.	.	.	32cc\JJJ)	.
!	!LO:DY:b:t=p.	!	!	!	!	!	!	!	!	!	!	!	!	!	!	!	!	!
!	!LO:MO:null:mod=.	!	!	!	!	!	!	!	!	!	!	!	!	!	!	!	!	!
8r	p	16G/	.	16B-/	.	.	.	.	.	.	.	.	.	.	.	.	(32b-/LLL	.
.	.	.	.	.	.	.	.	.	.	.	.	.	.	.	.	.	32g/	.
!	!	!	!	!LO:SIC:o=16c/JJ	!	!	!	!	!	!	!	!	!	!	!	!	!	!
.	.	16B-/JJ)	.	16cJJ)	.	16gg\K	.	.	.	.	.	.	.	.	.	.	32eX/	.
.	.	.	.	.	.	.	.	.	.	.	.	.	.	.	.	.	32c/JJJ)	.
*	*	*	*	*rep	*	*	*	*	*	*	*	*	*	*	*	*	*	*
!	!	!	!	!LO:SIC:o=16B-/LL	!	!	!	!	!	!	!	!	!	!	!	!	!	!
8C\	.	(16G/LL	.	(16B-LL	.	8.bb-\	.	.	.	.	8cc\	-ctus	.	.	.	.	(32B-/LLL	.
.	.	.	.	.	.	.	.	.	.	.	.	.	.	.	.	.	32c/	.
.	.	16B-/	.	16c/	.	.	.	.	.	.	.	.	.	.	.	.	32G/	.
.	.	.	.	.	.	.	.	.	.	.	.	.	.	.	.	.	32c/JJJ)	.
8r	.	16G/	.	16B-/	.	.	.	.	.	.	8een\	qui	.	.	.	.	(32B-/LLL	.
.	.	.	.	.	.	.	.	.	.	.	.	.	.	.	.	.	32c/	.
!	!	!	!	!LO:SIC:o=16c/JJ	!	!	!	!	!	!	!	!	!	!	!	!	!	!
.	.	16B-/JJ)	.	16cJJ)	.	16ee\Jk	.	.	.	.	.	.	.	.	.	.	32G/	.
.	.	.	.	.	.	.	.	.	.	.	.	.	.	.	.	.	32c/JJJ)	.
*	*	*	*	*Xrep	*	*	*	*	*	*	*	*	*	*	*	*	*	*
=33	=33	=33	=33	=33	=33	=33	=33	=33	=33	=33	=33	=33	=33	=33	=33	=33	=33	=33
!	!	!	!	!LO:LB:g=original	!	!	!	!	!	!	!	!	!	!	!	!	!LO:LB:g=original	!
!	!	!	!	!	!	!	!	!	!	!	!	!	!	!	!	!	!LO:SIC:o=32A/LLL	!
8FF/	.	(16F/LL	.	(16A/LL	.	(16ff\LL	.	2ryy	2ryy	2ryy	16ff\LL	ve-	.	2ryy	2ryy	2ryy	(32ALLL	.
.	.	.	.	.	.	.	.	.	.	.	.	.	.	.	.	.	32c/	.
.	.	16A/	.	16c/	.	16aa\	.	.	.	.	16dd\JJ	.	.	.	.	.	32f/	.
!	!	!	!	!	!	!	!	!	!	!	!	!	!	!	!	!	!LO:SIC:o=32c/JJJ	!
.	.	.	.	.	.	.	.	.	.	.	.	.	.	.	.	.	32cJJJ)	.
!	!	!	!	!	!	!	!	!	!	!	!	!	!	!	!	!	!LO:SIC:o=32A/LLL	!
8r	.	16F/	.	16A/	.	16cc\	.	.	.	.	8cc\	-nit	.	.	.	.	(32ALLL	.
.	.	.	.	.	.	.	.	.	.	.	.	.	.	.	.	.	32c/	.
!	!	!	!	!	!	!LO:SIC:o=16ff\JJ	!	!	!	!	!	!	!	!	!	!	!	!
.	.	16A/JJ)	.	16c/JJ)	.	16ffJJ)	.	.	.	.	.	.	.	.	.	.	32f/	.
!	!	!	!	!	!	!	!	!	!	!	!	!	!	!	!	!	!LO:SIC:o=32a/JJJ	!
.	.	.	.	.	.	.	.	.	.	.	.	.	.	.	.	.	32aJJJ)	.
*	*	*rep	*	*	*	*	*	*	*	*	*	*	*	*	*	*	*	*
!	!	!	!	!	!	!LO:SIC:o=16aa\LL	!	!	!	!	!	!	!	!	!	!	!LO:SIC:o=32cc\LLL	!
8A\L|	.	(16F/LL	.	(16f/LL	.	(16aaLL	.	.	.	.	8r	.	.	.	.	.	(32ccLLL	.
.	.	.	.	.	.	.	.	.	.	.	.	.	.	.	.	.	32ff\	.
.	.	16A/	.	16c/	.	16ff\	.	.	.	.	.	.	.	.	.	.	32aa\	.
!	!	!	!	!	!	!	!	!	!	!	!	!	!	!	!	!	!LO:SIC:o=32ff\JJJ	!
.	.	.	.	.	.	.	.	.	.	.	.	.	.	.	.	.	32ffJJJ)	.
!	!	!	!	!	!	!LO:SIC:o=16cc\)	!	!	!	!	!	!	!	!	!	!	!LO:SIC:o=32cc\LLL	!
8F\J|	.	16F/	.	16A/	.	16cc	.	.	.	.	8cc\	qui	.	.	.	.	(32ccLLL	.
.	.	.	.	.	.	.	.	.	.	.	.	.	.	.	.	.	32aa\	.
!	!	!	!	!	!	!LO:SIC:o=16a\JJ	!	!	!	!	!	!	!	!	!	!	!	!
.	.	16A/JJ)	.	16c/JJ)	.	16aJJ)	.	.	.	.	.	.	.	.	.	.	32gg\	.
!	!	!	!	!	!	!	!	!	!	!	!	!	!	!	!	!	!LO:SIC:o=32ff\JJJ	!
.	.	.	.	.	.	.	.	.	.	.	.	.	.	.	.	.	32ffJJJ)	.
*	*	*Xrep	*	*	*	*	*	*	*	*	*	*	*	*	*	*	*	*
=34	=34	=34	=34	=34	=34	=34	=34	=34	=34	=34	=34	=34	=34	=34	=34	=34	=34	=34
8C\	.	(16En/LL	.	(16B-/LL	.	16cc\LL|	.	2ryy	2ryy	2ryy	4cc\	ve-	.	2ryy	2ryy	2ryy	16eeX'\LL	.
.	.	16G/	.	16c/	.	(32een\L	.	.	.	.	.	.	.	.	.	.	(32gg\L	.
.	.	.	.	.	.	32dd\JJJ)	.	.	.	.	.	.	.	.	.	.	32ff\JJJ)	.
8r	.	16E/	.	16B-/	.	16cc\LL|	.	.	.	.	.	.	.	.	.	.	16ee'\LL	.
.	.	16G/JJ)	.	16c/JJ)	.	(32cc\L	.	.	.	.	.	.	.	.	.	.	(32ee\L	.
*	*	*	*	*	*	*custos:a	*	*	*	*	*	*	*	*	*	*	*	*
.	.	.	.	.	.	32dd\JJJ)	.	.	.	.	.	.	.	.	.	.	32ff\JJJ)	.
!	!	!	!	!	!	!LO:LB:g=original	!	!	!	!	!	!	!	!	!	!	!LO:SIC:o=16gg|\LL	!
8C\	.	(16C/LL	.	(16G/LL	.	16ee\LL|	.	.	.	.	8een\	-nit	.	.	.	.	16ggLL'	.
.	.	16G/	.	16c/	.	(32ee\L	.	.	.	.	.	.	.	.	.	.	(32gg\L	.
.	.	.	.	.	.	32ff\JJJ)	.	.	.	.	.	.	.	.	.	.	32aa\JJJ)	.
8r	.	16C/	.	16B-/	.	16gg'\LL	.	.	.	.	8ee\	qui	.	.	.	.	(32bb-\LLL	.
.	.	.	.	.	.	.	.	.	.	.	.	.	.	.	.	.	32gg\	.
.	.	16G/JJ)	.	16c/JJ)	.	16ee'\JJ	.	.	.	.	.	.	.	.	.	.	32ccc\	.
.	.	.	.	.	.	.	.	.	.	.	.	.	.	.	.	.	32bb-\JJJ)	.
=35	=35	=35	=35	=35	=35	=35	=35	=35	=35	=35	=35	=35	=35	=35	=35	=35	=35	=35
!	!	!	!	!	!	!LO:TX:t=P:problem=mixed beam	!	!	!	!	!	!	!	!	!	!	!	!
8F\	.	16c/LL	.	(16A/LL	.	16ff\LL	.	2ryy	2ryy	2ryy	4ff\	ve-	.	2ryy	2ryy	2ryy	8aa\	.
.	.	16A/	.	16c/)	.	16f/	.	.	.	.	.	.	.	.	.	.	.	.
8r	p	16A/	.	16c|/	.	16f/	.	.	.	.	.	.	.	.	.	.	8r	.
.	.	16A/JJ	.	16c|/JJ	.	16f/JJ	.	.	.	.	.	.	.	.	.	.	.	.
8A\	.	16r	.	16r	.	16r	.	.	.	.	8cc\	-nit	.	.	.	.	4r	.
.	.	16c\LL	.	16e-X/LL	.	16f/LL	.	.	.	.	.	.	.	.	.	.	.	.
8r	.	16c\	.	16e-/	.	16f/	.	.	.	.	16ee-X\LL	qui	.	.	.	.	.	.
.	.	16c\JJ	.	16e-/JJ	.	16f/JJ	.	.	.	.	16dd\JJ	.	.	.	.	.	.	.
=36	=36	=36	=36	=36	=36	=36	=36	=36	=36	=36	=36	=36	=36	=36	=36	=36	=36	=36
!	!	!	!	!	!	!	!	!	!	!	!	!	!	!	!	!	!LO:TX:a:t=3.:mod=	!
8B-\	.	16r	.	16r	.	16r	.	2ryy	2ryy	2ryy	8.dd\L	ve-	.	2ryy	2ryy	2ryy	1r	.
.	.	16F\LL	.	16d/LL	.	16f/LL	.	.	.	.	.	.	.	.	.	.	.	.
8r	.	16F\	.	16d/	.	16f/	.	.	.	.	.	.	.	.	.	.	.	.
*	*	*custos:A	*	*	*	*	*	*	*	*	*	*	*	*	*	*	*	*
.	.	16F\JJ	.	16d/JJ	.	16f/JJ	.	.	.	.	16een\Jk	.	.	.	.	.	.	.
!	!	!LO:LB:g=original	!	!	!	!	!	!	!	!	!	!	!	!	!	!	!	!
8r	.	16r	.	16r	.	16r	.	.	.	.	(16ff\LL	-nit	.	.	.	.	.	.
.	.	16G/LL	.	16d/LL	.	16b-\LL	.	.	.	.	16dd\JJ)	.	.	.	.	.	.	.
8BB-/	.	16G/	.	16d/	.	16b-\	.	.	.	.	16cc\LL	in	.	.	.	.	.	.
.	.	16G/JJ	.	16d/JJ	.	16b-\JJ	.	.	.	.	16b-\JJ	.	.	.	.	.	.	.
=37	=37	=37	=37	=37	=37	=37	=37	=37	=37	=37	=37	=37	=37	=37	=37	=37	=37	=37
!	!	!	!	!	!	!	!	!	!	!	!LO:LB:g=original	!	!	!	!	!	!	!
8C\	.	8c\	.	8f/	.	8a\	.	2ryy	2ryy	2ryy	(32a\LLL	no-	.	2ryy	2ryy	2ryy	.	.
.	.	.	.	.	.	.	.	.	.	.	32f\	.	.	.	.	.	.	.
.	.	.	.	.	.	.	.	.	.	.	32g\	.	.	.	.	.	.	.
.	.	.	.	.	.	.	.	.	.	.	32a\JJJ	.	.	.	.	.	.	.
8r	.	8r	.	8r	.	8r	.	.	.	.	32b-\LLL	.	.	.	.	.	.	.
.	.	.	.	.	.	.	.	.	.	.	32cc\	.	.	.	.	.	.	.
.	.	.	.	.	.	.	.	.	.	.	32dd\	.	.	.	.	.	.	.
.	.	.	.	.	.	.	.	.	.	.	32een\JJJ	.	.	.	.	.	.	.
4r	.	4r	.	4r	.	4r	.	.	.	.	32ff\LLL	.	.	.	.	.	.	.
.	.	.	.	.	.	.	.	.	.	.	32ee\	.	.	.	.	.	.	.
.	.	.	.	.	.	.	.	.	.	.	32dd\	.	.	.	.	.	.	.
.	.	.	.	.	.	.	.	.	.	.	32cc\JJJ	.	.	.	.	.	.	.
.	.	.	.	.	.	.	.	.	.	.	32dd\LLL	-mi-	.	.	.	.	.	.
.	.	.	.	.	.	.	.	.	.	.	32cc\	.	.	.	.	.	.	.
.	.	.	.	.	.	.	.	.	.	.	32b-\	-ne	.	.	.	.	.	.
.	.	.	.	.	.	.	.	.	.	.	32a\JJJ)	.	.	.	.	.	.	.
!	!	!	!	!LO:TX:b:t=Verte:rj:mod=	!	!	!	!	!	!	!	!	!	!	!	!	!	!
=38	=38	=38	=38	=38	=38	=38	=38	=38	=38	=38	=38	=38	=38	=38	=38	=38	=38	=38
*tremolo	*	*	*	*tremolo	*	*	*	*	*	*	*	*	*	*	*	*	*	*
!	!	!	!	!	!	!	!LO:MO:mod=!null:null	!	!	!	!	!	!LO:MO:mod=!null:null	!	!	!	!	!
!	!LO:DY:t=for.	!	!	!LO:PB:g=original	!LO:DY:t=for.	!	!LO:HP:t=cres	!	!	!	!	!	!LO:HP:a:t=cres	!	!	!	!	!
!	!LO:MO:mod=<	!	!LO:MO:null:mod=<	!	!LO:MO:mod=<	!	!	!	!	!	!	!	!	!	!	!	!	!
16C/LL	f	16c\LL	.	16g/LL	f	16ff\LL	<	2ryy	2ryy	2ryy	4..g\	Do-	<	2ryy	2ryy	2ryy	2r	.
16C/	.	16c\	.	16g/	.	16ff\	.	.	.	.	.	.	.	.	.	.	.	.
16C/	.	16c\	.	16g/	.	16ff\	.	.	.	.	.	.	.	.	.	.	.	.
16C/JJ	.	16c\JJ	.	16g/JJ	.	16ff\JJ	.	.	.	.	.	.	.	.	.	.	.	.
*	*	*tremolo	*	*	*	*	*	*	*	*	*	*	*	*	*	*	*	*
!	!	!LO:SIC:v:o=16e-\LL	!	!	!	!	!LO:DY:t=for.	!	!	!	!	!	!	!	!	!	!	!
!	!	!	!	!	!	!	!LO:MO:null:mod=.	!	!	!	!	!	!	!	!	!	!	!
16C/LL	.	16eLL	.	16b-/LL	.	16een\LL	f	.	.	.	.	.	.	.	.	.	.	.
!	!	!LO:SIC:v:o=16e-\	!	!	!	!	!	!	!	!	!	!	!	!	!	!	!	!
16C/	.	16e	.	16b-/	.	16ee\	.	.	.	.	.	.	.	.	.	.	.	.
!	!	!LO:SIC:v:o=16e-\	!	!	!	!	!	!	!	!	!	!	!	!	!	!	!	!
16C/	.	16e	.	16b-/	.	16ee\	.	.	.	.	.	.	.	.	.	.	.	.
!	!	!LO:SIC:v:o=16e-\JJ	!	!	!	!	!	!	!	!	!	!	!	!	!	!	!	!
16C/JJ	.	16eJJ	.	16b-/JJ	.	16ee\JJ	.	.	.	.	16g\	-mi-	.	.	.	.	.	.
*Xtremolo	*	*Xtremolo	*	*Xtremolo	*	*	*	*	*	*	*	*	*	*	*	*	*	*
=39	=39	=39	=39	=39	=39	=39	=39	=39	=39	=39	=39	=39	=39	=39	=39	=39	=39	=39
!	!LO:MO:null:mod=!LO&colon;DY&colon;ed=brack	!	!LO:MO:null:mod=!LO&colon;DY&colon;ed=brack	!	!	!	!	!	!	!	!	!	!	!	!	!	!LO:MO:mod=!LO&colon;TX&colon;i&colon;t=Solo	!
!	!LO:DY:t=p.	!	!	!	!	!	!	!	!	!	!	!	!LO:DY:a:t=for	!	!	!	!LO:TX:b:i:t=Solo.	!
!	!LO:MO:null:mod=f	!	!LO:MO:null:mod=f	!	!LO:MO:null:mod=f	!	!LO:MO:null:mod=f	!	!	!	!	!	!	!	!	!	!	!
8FF/	p	8f\	.	8a/	.	8ff\L	.	2ryy	2ryy	2ryy	4f/	-ni	f	2ryy	2ryy	2ryy	8ff'\L	.
8r	.	8r	.	8r	.	(32cc\LL	.	.	.	.	.	.	.	.	.	.	(32aa\LL	.
.	.	.	.	.	.	32a\	.	.	.	.	.	.	.	.	.	.	32ff\	.
.	.	.	.	.	.	32dd\	.	.	.	.	.	.	.	.	.	.	32bb-\	.
.	.	.	.	.	.	32b-\JJJ)	.	.	.	.	.	.	.	.	.	.	32gg\JJJ)	.
!	!LO:MO:null:mod=!LO&colon;DY&colon;ed=brack	!	!	!	!	!	!LO:MO:null:mod=!LO&colon;DY&colon;ed=brack	!	!	!	!	!	!	!	!	!	!	!
!	!LO:MO:null:mod=p	!	!LO:DY:t=p.	!	!	!	!LO:MO:null:mod=p	!	!	!	!	!	!	!	!	!	!	!
8C/	.	8B-/L	p	8en/L	p	8g/L	.	.	.	.	4r	.	.	.	.	.	8eeX'\L	.
8r	.	8en/J	.	8g/J	.	8cc/J	.	.	.	.	.	.	.	.	.	.	(32cc\LL	.
.	.	.	.	.	.	.	.	.	.	.	.	.	.	.	.	.	32ee\	.
.	.	.	.	.	.	.	.	.	.	.	.	.	.	.	.	.	32gg\	.
*	*	*	*	*	*	*	*	*	*	*	*	*	*	*	*	*	*custos:a	*
.	.	.	.	.	.	.	.	.	.	.	.	.	.	.	.	.	32bb-\JJJ)	.
=40	=40	=40	=40	=40	=40	=40	=40	=40	=40	=40	=40	=40	=40	=40	=40	=40	=40	=40
!	!	!	!	!	!	!LO:LB:g=original	!	!	!	!	!LO:TX:a:t=3.:mod=	!	!	!	!	!	!	!
8F\	.	8f\	.	8a/L	.	8cc/L	.	2ryy	2ryy	2ryy	1r	.	.	2ryy	2ryy	2ryy	(32aa\LLL	.
.	.	.	.	.	.	.	.	.	.	.	.	.	.	.	.	.	32ff\	.
.	.	.	.	.	.	.	.	.	.	.	.	.	.	.	.	.	32eeX\)	.
.	.	.	.	.	.	.	.	.	.	.	.	.	.	.	.	.	32ff\JJJ	.
8r	.	8r	.	8f/	.	8a/	.	.	.	.	.	.	.	.	.	.	(32aa\LLL	.
.	.	.	.	.	.	.	.	.	.	.	.	.	.	.	.	.	32ff\	.
.	.	.	.	.	.	.	.	.	.	.	.	.	.	.	.	.	32ee\	.
.	.	.	.	.	.	.	.	.	.	.	.	.	.	.	.	.	32dd\JJJ)	.
.	.	.	.	.	.	.	.	.	.	.	.	.	.	.	.	.	8qeenX/	.
8En\L	.	8r	.	8g/	.	8g/	.	.	.	.	.	.	.	.	.	.	(32dd\LLL	.
.	.	.	.	.	.	.	.	.	.	.	.	.	.	.	.	.	32cc\)	.
.	.	.	.	.	.	.	.	.	.	.	.	.	.	.	.	.	32cc|\	.
.	.	.	.	.	.	.	.	.	.	.	.	.	.	.	.	.	32cc|\JJJ	.
8B-\J	.	8g\	.	8en/J	.	8cc/J	.	.	.	.	.	.	.	.	.	.	(32bb-\LLL	.
.	.	.	.	.	.	.	.	.	.	.	.	.	.	.	.	.	32gg\	.
.	.	.	.	.	.	.	.	.	.	.	.	.	.	.	.	.	32eenX\	.
.	.	.	.	.	.	.	.	.	.	.	.	.	.	.	.	.	32gg\JJJ)	.
=41	=41	=41	=41	=41	=41	=41	=41	=41	=41	=41	=41	=41	=41	=41	=41	=41	=41	=41
!LO:TX:t=P:problem=mixed beam	!	!	!	!	!	!	!	!	!	!	!	!	!	!	!	!	!LO:SIC:o=32ff\LLL	!
8A\L	.	8f\L	.	8f/L	.	8cc\L	.	2ryy	2ryy	2ryy	.	.	.	2ryy	2ryy	2ryy	(32ffLLL	.
.	.	.	.	.	.	.	.	.	.	.	.	.	.	.	.	.	32cc\	.
.	.	.	.	.	.	.	.	.	.	.	.	.	.	.	.	.	32aa\	.
!	!	!	!	!	!	!	!	!	!	!	!	!	!	!	!	!	!LO:SIC:o=32ff\JJJ	!
.	.	.	.	.	.	.	.	.	.	.	.	.	.	.	.	.	32ffJJJ)	.
!	!	!	!	!	!	!	!LO:DY:a:t=for.	!	!	!	!	!	!	!	!	!	!LO:SIC:o=32eeX\LLL	!
8C/J	.	8g\	.	8b-/	.	8cc\ 8een	f	.	.	.	.	.	.	.	.	.	(32eeLLL	.
.	.	.	.	.	.	.	.	.	.	.	.	.	.	.	.	.	32cc\	.
.	.	.	.	.	.	.	.	.	.	.	.	.	.	.	.	.	32gg\	.
!	!	!	!	!	!	!	!	!	!	!	!	!	!	!	!	!	!LO:SIC:o=32ee\JJJ	!
.	.	.	.	.	.	.	.	.	.	.	.	.	.	.	.	.	32eeJJJ)	.
!LO:TX:t=P:problem=mixed beam	!	!	!	!	!	!	!	!	!	!	!	!	!	!	!	!	!LO:SIC:o=32ff\LLL	!
8F\L	.	8f\	.	8a/	.	8cc\ 8ff	.	.	.	.	.	.	.	.	.	.	(32ffLLL	.
.	.	.	.	.	.	.	.	.	.	.	.	.	.	.	.	.	32ccc\	.
.	.	.	.	.	.	.	.	.	.	.	.	.	.	.	.	.	32aa\	.
!	!	!	!	!	!	!	!	!	!	!	!	!	!	!	!	!	!LO:SIC:o=32ff\JJJ	!
.	.	.	.	.	.	.	.	.	.	.	.	.	.	.	.	.	32ffJJJ)	.
!	!	!	!	!	!	!	!	!	!	!	!	!	!	!	!	!	!LO:SIC:o=32ee\LLL	!
8C/J	.	8g\J	.	8b-/J	.	8cc\J 8ee	.	.	.	.	.	.	.	.	.	.	(32eeLLL	.
.	.	.	.	.	.	.	.	.	.	.	.	.	.	.	.	.	32cc\	.
.	.	.	.	.	.	.	.	.	.	.	.	.	.	.	.	.	32dd\	.
!	!	!	!	!	!	!	!	!	!	!	!	!	!	!	!	!	!LO:SIC:o=32ee\JJJ	!
.	.	.	.	.	.	.	.	.	.	.	.	.	.	.	.	.	32eeJJJ)	.
=42	=42	=42	=42	=42	=42	=42	=42	=42	=42	=42	=42	=42	=42	=42	=42	=42	=42	=42
!	!	!	!	!	!LO:DY:a:t=for.	!	!	!	!	!	!	!	!	!	!	!	!LO:SIC:o=32ff\LLL	!
8F\L	.	8f\L	.	8f\L 8a	f	8a\L 8ff	.	2ryy	2ryy	2ryy	2r	.	.	2ryy	2ryy	2ryy	(32ffLLL	.
.	.	.	.	.	.	.	.	.	.	.	.	.	.	.	.	.	32aa\	.
.	.	.	.	.	.	.	.	.	.	.	.	.	.	.	.	.	32ff\	.
!	!	!	!	!	!	!	!	!	!	!	!	!	!	!	!	!	!LO:SIC:o=32cc\JJJ	!
.	.	.	.	.	.	.	.	.	.	.	.	.	.	.	.	.	32ccJJJ)	.
!	!	!	!LO:DY:t=for.	!	!	!	!	!	!	!	!	!	!	!	!	!	!LO:SIC:o=32a/LLL	!
8F\	.	8F\ 8c	f	8f\ 8a	.	8a\ 8ff	.	.	.	.	.	.	.	.	.	.	(32aLLL	.
.	.	.	.	.	.	.	.	.	.	.	.	.	.	.	.	.	32f/	.
.	.	.	.	.	.	.	.	.	.	.	.	.	.	.	.	.	32c/	.
!	!	!	!	!	!	!	!	!	!	!	!	!	!	!	!	!	!LO:SIC:o=32A/JJJ	!
.	.	.	.	.	.	.	.	.	.	.	.	.	.	.	.	.	32AJJJ)	.
8F\J	.	8F\J 8c	.	8f\J 8a	.	8a\J 8ff	.	.	.	.	.	.	.	.	.	.	8F/	.
8r	.	8r	.	8r	.	8r	.	.	.	.	.	.	.	.	.	.	8r	.
=43	=43	=43	=43	=43	=43	=43	=43	=43	=43	=43	=43	=43	=43	=43	=43	=43	=43	=43
!	!	!	!LO:DY:t=p.	!	!LO:DY:t=p.:rj	!	!LO:DY:a:t=p.	!	!	!	!	!	!	!	!	!	!LO:TX:a:t=1.:mod=	!
8F\	.	(16A/LL	p	(16c/LL	p	16r	p	2ryy	2ryy	2ryy	8.cc\L	Be-	.	2ryy	2ryy	2ryy	2r	.
.	.	16c/JJ)	.	16e-X/JJ)	.	16a\LL|	.	.	.	.	.	.	.	.	.	.	.	.
8r	.	16r	.	16r	.	(16cc\	.	.	.	.	.	.	.	.	.	.	.	.
.	.	16A/	.	16c/	.	16ee-X\JJ)	.	.	.	.	16dd\Jk	.	.	.	.	.	.	.
8F#X\	.	(16A/LL	.	(16c/LL	.	16r	.	.	.	.	8.ee-\	-ne-	.	.	.	.	.	.
*	*	*custos:B	*	*	*	*	*	*	*	*	*	*	*	*	*	*	*	*
.	.	16c/JJ)	.	16e-/JJ)	.	16ee-\LL|	.	.	.	.	.	.	.	.	.	.	.	.
!	!	!LO:LB:g=original	!	!	!	!	!	!	!	!	!	!	!	!	!	!	!	!
8r	.	16r	.	16r	.	(16a\	.	.	.	.	.	.	.	.	.	.	.	.
.	.	16c/	.	16e-/	.	16cc\JJ)	.	.	.	.	32dd\LLL	.	.	.	.	.	.	.
.	.	.	.	.	.	.	.	.	.	.	32cc\JJJ	.	.	.	.	.	.	.
=44	=44	=44	=44	=44	=44	=44	=44	=44	=44	=44	=44	=44	=44	=44	=44	=44	=44	=44
.	.	.	.	.	.	.	.	.	.	.	16qqcc/	.	.	.	.	.	.	.
!	!	!	!	!LO:LB:g=original	!	!	!	!	!	!	!	!	!	!	!	!	!	!
8G\	.	(16B-/LL	.	(16d/LL	.	16r	.	2ryy	2ryy	2ryy	8b-\	-di-	.	2ryy	2ryy	2ryy	32r	.
!	!	!	!	!	!	!	!	!	!	!	!	!	!	!	!	!	!LO:MO:mod=!LO&colon;TX&colon;i&colon;t=Solo	!
!	!	!	!	!	!	!	!	!	!	!	!	!	!	!	!	!	!LO:TX:b:i:t=Solo.	!
.	.	.	.	.	.	.	.	.	.	.	.	.	.	.	.	.	(32G/LLL	.
.	.	16d/JJ)	.	16g/JJ)	.	16b-\LL|	.	.	.	.	.	.	.	.	.	.	32B-/	.
.	.	.	.	.	.	.	.	.	.	.	.	.	.	.	.	.	32d/JJJ)	.
8r	.	16r	.	16r	.	(16dd\	.	.	.	.	8b-\	-ctus	.	.	.	.	(32g\LLL	.
.	.	.	.	.	.	.	.	.	.	.	.	.	.	.	.	.	32b-\	.
.	.	16B-/	.	16d/	.	16gg\JJ)	.	.	.	.	.	.	.	.	.	.	32dd\	.
.	.	.	.	.	.	.	.	.	.	.	.	.	.	.	.	.	32gg\JJJ)	.
!	!	!	!	!	!	!	!	!	!	!	!	!	!	!	!	!	!LO:N:vis=16	!
8G\	.	(16B-/LL	.	(16d/LL	.	16r	.	.	.	.	8r	.	.	.	.	.	8bb-\	.
!	!	!	!	!	!	!LO:SIC:o=16dd'\LL	!	!	!	!	!	!	!	!	!	!	!	!
.	.	16d/JJ)	.	16g/JJ)	.	16dd|LL	.	.	.	.	.	.	.	.	.	.	.	.
8r	.	16r	.	16r	.	(16g\	.	.	.	.	8b-\	qui	.	.	.	.	8r	.
.	.	16B-/	.	16d/	.	16b-\JJ)	.	.	.	.	.	.	.	.	.	.	.	.
=45	=45	=45	=45	=45	=45	=45	=45	=45	=45	=45	=45	=45	=45	=45	=45	=45	=45	=45
!	!	!	!	!	!	!	!	!	!	!	!	!	!	!	!	!	!LO:LB:g=original	!
!LO:LB:g=original	!	!	!	!	!	!	!	!	!	!	!LO:LB:g=original	!	!	!	!	!	!LO:TX:a:t=1.:mod=	!
8F#X\	.	(16A/LL	.	16c/LL	.	16r	.	2ryy	2ryy	2ryy	8.cc\L	ve-	.	2ryy	2ryy	2ryy	2r	.
!	!	!	!	!	!	!LO:SIC:o=16cc'\LL	!	!	!	!	!	!	!	!	!	!	!	!
.	.	16c/JJ)	.	16e-/JJ	.	16cc|LL	.	.	.	.	.	.	.	.	.	.	.	.
8r	.	16r	.	16r	.	(16a\	.	.	.	.	.	.	.	.	.	.	.	.
.	.	16c\	.	16e-/	.	16aa\JJ)	.	.	.	.	16dd\Jk	.	.	.	.	.	.	.
.	.	.	.	.	.	.	.	.	.	.	8qqff/	.	.	.	.	.	.	.
8F#\	.	(16A/LL	.	16d/LL	.	16r	.	.	.	.	8ee-\	-nit	.	.	.	.	.	.
!	!	!	!	!	!	!LO:SIC:o=16aa\LL	!	!	!	!	!	!	!	!	!	!	!	!
.	.	16c/JJ)	.	16d/JJ	.	16aa|LL	.	.	.	.	.	.	.	.	.	.	.	.
!	!	!	!	!	!	!LO:SIC:o=16ee-X\	!	!	!	!	!	!	!	!	!	!	!	!
8r	.	16r	.	16r	.	(16ee-	.	.	.	.	16dd\LL	in	.	.	.	.	.	.
!	!	!	!	!	!	!LO:SIC:o=16cc\JJ	!	!	!	!	!	!	!	!	!	!	!	!
.	.	16A/	.	16d/	.	16ccJJ)	.	.	.	.	16cc\JJ	.	.	.	.	.	.	.
=46	=46	=46	=46	=46	=46	=46	=46	=46	=46	=46	=46	=46	=46	=46	=46	=46	=46	=46
!	!	!	!	!	!	!LO:LB:g=original	!	!	!	!	!	!	!	!	!	!	!	!
8G\	.	(16G/LL	.	(16B-/LL	.	16r	.	2ryy	2ryy	2ryy	8.b-\	no-	.	2ryy	2ryy	2ryy	32r	.
.	.	.	.	.	.	.	.	.	.	.	.	.	.	.	.	.	(32G/LLL	.
.	.	16B-/JJ)	.	16d/JJ)	.	16b-|\LL	.	.	.	.	.	.	.	.	.	.	32A/	.
.	.	.	.	.	.	.	.	.	.	.	.	.	.	.	.	.	32B-/JJJ)	.
8r	.	16r	.	16r	.	(16g\	.	.	.	.	.	.	.	.	.	.	(32c/LLL	.
.	.	.	.	.	.	.	.	.	.	.	.	.	.	.	.	.	32d/	.
.	.	16B-/	.	16d/	.	16dd\JJ)	.	.	.	.	16a\	-mi-	.	.	.	.	32eX/	.
.	.	.	.	.	.	.	.	.	.	.	.	.	.	.	.	.	32f#X/JJJ)	.
8G\	.	(16G/LL	.	16B-/LL	.	16r	.	.	.	.	8g\	-ne	.	.	.	.	(32g/LLL	.
.	.	.	.	.	.	.	.	.	.	.	.	.	.	.	.	.	32d/	.
.	.	16B-/JJ)	.	16d/JJ	.	16dd'\LL	.	.	.	.	.	.	.	.	.	.	32B-/	.
.	.	.	.	.	.	.	.	.	.	.	.	.	.	.	.	.	32G/JJ)	.
8r	.	16r	.	16r	.	(16b-\	.	.	.	.	8r	.	.	.	.	.	8g'/J	.
.	.	16B-/	.	16d/	.	16gg\JJ)	.	.	.	.	.	.	.	.	.	.	.	.
=47	=47	=47	=47	=47	=47	=47	=47	=47	=47	=47	=47	=47	=47	=47	=47	=47	=47	=47
!	!	!	!	!	!	!	!	!	!	!	!	!	!LO:DY:a:t=for:rj	!	!	!	!	!LO:DY:t=p.
8E-\	.	(16G/LL	.	16e-/LL	.	16r	.	2ryy	2ryy	2ryy	4.gg\	Do-	f	2ryy	2ryy	2ryy	16r	p
!	!	!	!	!	!	!LO:SIC:o=16ee-'\LL	!	!	!	!	!	!	!	!	!	!	!	!
.	.	16B-/JJ)	.	16g/JJ	.	16ee-|LL	.	.	.	.	.	.	.	.	.	.	16g\LL	.
8r	.	16r	.	16r	.	(16b-\	.	.	.	.	.	.	.	.	.	.	16b-\	.
.	.	16B-/	.	16g/	.	16gg\JJ)	.	.	.	.	.	.	.	.	.	.	16ee-\JJ	.
8E-\	.	(16G/LL	.	(16e-/LL	.	16r	.	.	.	.	.	.	.	.	.	.	(16gg\LL	.
!	!	!	!	!	!	!	!LO:MO:mod=!null:null	!	!	!	!	!	!	!	!	!	!	!
!	!	!	!	!	!	!	!LO:HP:t=cres.	!	!	!	!	!	!	!	!	!	!	!
.	.	16B-/JJ)	.	16g/JJ)	.	16bb-|\LL	<	.	.	.	.	.	.	.	.	.	16bb-\JJ)	.
8r	.	16r	.	16r	.	(16gg\	.	.	.	.	8cc#X\	-mi-	.	.	.	.	16r	.
.	.	16A/	.	16g/	.	16ccc\JJ)	.	.	.	.	.	.	.	.	.	.	16gg\	.
=48	=48	=48	=48	=48	=48	=48	=48	=48	=48	=48	=48	=48	=48	=48	=48	=48	=48	=48
.	.	.	.	.	.	.	.	.	.	.	8qqcc#X/	.	.	.	.	.	.	.
!	!	!	!	!LO:LB:g=original	!	!	!LO:DY:t=rf.	!	!	!	!	!	!	!	!	!	!	!LO:DY:t=f.
8D\	.	8A/	.	8f#X/	.	8ddd\	rf	2ryy	2ryy	2ryy	4dd\	-ni	.	2ryy	2ryy	2ryy	(32ff#X\LLL	f
.	.	.	.	.	.	.	.	.	.	.	.	.	.	.	.	.	32dd\	.
.	.	.	.	.	.	.	.	.	.	.	.	.	.	.	.	.	32aa\	.
.	.	.	.	.	.	.	.	.	.	.	.	.	.	.	.	.	32ff#\JJJ)	.
8r	.	8r	.	8r	.	8r	.	.	.	.	.	.	.	.	.	.	16dd\LL	.
.	.	.	.	.	.	.	.	.	.	.	.	.	.	.	.	.	16dd\JJ	.
!	!	!	!	!LO:SIC:v:o=8f#/ 8a	!	!	!LO:DY:t=p.	!	!	!	!	!	!	!	!	!	!	!
8C\	.	8c\ 8e-X	.	8f 8a	.	8f/	p	.	.	.	4r	.	.	.	.	.	(32ff\LLL	.
.	.	.	.	.	.	.	.	.	.	.	.	.	.	.	.	.	32eeX\	.
.	.	.	.	.	.	.	.	.	.	.	.	.	.	.	.	.	32gg\	.
.	.	.	.	.	.	.	.	.	.	.	.	.	.	.	.	.	32ff\JJJ)	.
8r	.	8r	.	8r	.	8r	.	.	.	.	.	.	.	.	.	.	(32ee-\LLL	.
.	.	.	.	.	.	.	.	.	.	.	.	.	.	.	.	.	32dd\	.
.	.	.	.	.	.	.	.	.	.	.	.	.	.	.	.	.	32ee-\	.
.	.	.	.	.	.	.	.	.	.	.	.	.	.	.	.	.	32cc\JJJ)	.
=49	=49	=49	=49	=49	=49	=49	=49	=49	=49	=49	=49	=49	=49	=49	=49	=49	=49	=49
!	!	!LO:LB:g=original	!	!	!	!	!	!	!	!	!	!	!	!	!	!	!	!
8BB-/	.	8B-/	.	16r	.	16b-/LL	.	2ryy	2ryy	2ryy	(4b-\	Be-	.	2ryy	2ryy	2ryy	8b-\	.
.	.	.	.	16d/LL	.	16f/	.	.	.	.	.	.	.	.	.	.	.	.
8r	.	8r	.	16d/	.	16f/	.	.	.	.	.	.	.	.	.	.	8r	.
.	.	.	.	16d/JJ	.	16f/JJ	.	.	.	.	.	.	.	.	.	.	.	.
8B-\	.	8B-/	.	16r	.	16r	.	.	.	.	16b-\LL	.	.	.	.	.	4r	.
.	.	.	.	16d/LL	.	16f/LL	.	.	.	.	16dd\JJ	.	.	.	.	.	.	.
8r	.	8r	.	16d/	.	16f/	.	.	.	.	16gg\LL)	.	.	.	.	.	.	.
.	.	.	.	16d/JJ	.	16f/JJ	.	.	.	.	16ff\JJ	-ne-	.	.	.	.	.	.
=50	=50	=50	=50	=50	=50	=50	=50	=50	=50	=50	=50	=50	=50	=50	=50	=50	=50	=50
!	!	!	!	!	!	!	!	!	!	!	!	!	!	!	!	!	!LO:TX:a:t=2.:mod=	!
8A\	.	8A/	.	16r	.	16r	.	2ryy	2ryy	2ryy	8.ff\L	-di-	.	2ryy	2ryy	2ryy	1r	.
.	.	.	.	16c/LL	.	16f/LL	.	.	.	.	.	.	.	.	.	.	.	.
8r	.	8r	.	16c/	.	16f/	.	.	.	.	.	.	.	.	.	.	.	.
.	.	.	.	16c/JJ	.	16f/JJ	.	.	.	.	16cc\Jk	.	.	.	.	.	.	.
8F\L	.	8c\	.	16r	.	16r	.	.	.	.	8.ee-\	-ctus	.	.	.	.	.	.
.	.	.	.	16e-/LL	.	16a/LL	.	.	.	.	.	.	.	.	.	.	.	.
8E-\J	.	8r	.	16e-/	.	16a/	.	.	.	.	.	.	.	.	.	.	.	.
.	.	.	.	16e-/JJ	.	16a/JJ	.	.	.	.	16a\	qui	.	.	.	.	.	.
=51	=51	=51	=51	=51	=51	=51	=51	=51	=51	=51	=51	=51	=51	=51	=51	=51	=51	=51
!LO:LB:g=original	!	!	!	!	!	!	!	!	!	!	!	!	!	!	!	!	!	!
!LO:TX:t=P:problem=mixed beam	!LO:DY:t=for.	!	!	!	!	!	!	!	!	!	!LO:LB:g=original	!	!	!	!	!	!	!
!	!LO:MO:null:mod=.	!	!	!	!	!	!	!	!	!	!	!	!	!	!	!	!	!
8D\L	f	16r	.	16r	.	16r	.	2ryy	2ryy	2ryy	16cc\LL	ve-	.	2ryy	2ryy	2ryy	.	.
!	!	!	!	!	!LO:MO:mod=!null:null	!	!	!	!	!	!	!	!	!	!	!	!	!
!	!	!	!	!	!LO:HP:t=cres.	!	!	!	!	!	!	!	!	!	!	!	!	!
!	!	!	!	!LO:SIC:o=16d/LL	!LO:MO:null:mod=.	!	!	!	!	!	!	!	!	!	!	!	!	!
.	.	16B-|/LL	.	16dLL|	<	16b-\LL|	.	.	.	.	16b-\JJ	.	.	.	.	.	.	.
!	!	!	!	!LO:SIC:o=16d/	!	!	!	!	!	!	!LO:TX:t=P:problem=nuta dopisana ołówkiem	!	!	!	!	!	!	!
8B-\	.	(16B-/	.	(16d	.	(16f\	.	.	.	.	8b-\	-nit	.	.	.	.	.	.
!	!	!	!	!LO:SIC:o=16f/JJ	!	!	!	!	!	!	!	!	!	!	!	!	!	!
.	.	16d/JJ)	.	16fJJ)	.	16dd\JJ)	.	.	.	.	.	.	.	.	.	.	.	.
8BB-/J	.	8B-/	.	8d/	.	8b-/	.	.	.	.	8r	.	.	.	.	.	.	.
8r	.	8r	.	8r	.	8r	.	.	.	.	16b-\	be-	.	.	.	.	.	.
.	.	.	.	.	.	.	.	.	.	.	16b-\	-ne-	.	.	.	.	.	.
=52	=52	=52	=52	=52	=52	=52	=52	=52	=52	=52	=52	=52	=52	=52	=52	=52	=52	=52
!	!	!	!	!	!	!	!	!	!	!	!	!	!	!	!	!	!LO:LB:g=original	!
!	!LO:DY:t=p.	!	!	!	!	!LO:LB:g=original	!	!	!	!	!	!	!	!	!	!	!LO:TX:a:i:t=Solo.:mod=Solo	!
8BB-\	p	8r	.	8r	.	8r	.	2ryy	2ryy	2ryy	16dd\LL	di-	.	2ryy	2ryy	2ryy	32r	.
.	.	.	.	.	.	.	.	.	.	.	.	.	.	.	.	.	(32A/LLL	.
.	.	.	.	.	.	.	.	.	.	.	16cc\JJ	.	.	.	.	.	32c/	.
.	.	.	.	.	.	.	.	.	.	.	.	.	.	.	.	.	32e-/JJJ)	.
!	!	!	!LO:MO:null:mod=!LO&colon;DY&colon;ed=brack	!	!LO:MO:null:mod=!LO&colon;DY&colon;ed=brack	!	!	!	!	!	!	!	!	!	!	!	!	!
!	!	!	!	!	!LO:DY:t=for.	!	!	!	!	!	!	!	!	!	!	!	!	!
!	!	!	!LO:MO:null:mod=p	!	!LO:MO:null:mod=p	!	!	!	!	!	!	!	!	!	!	!	!	!
8r	.	8c\L	.	8e-/L	f	8a/L	p	.	.	.	8cc\	-ctus	.	.	.	.	(32f\LLL	.
.	.	.	.	.	.	.	.	.	.	.	.	.	.	.	.	.	32a\	.
.	.	.	.	.	.	.	.	.	.	.	.	.	.	.	.	.	32cc\	.
.	.	.	.	.	.	.	.	.	.	.	.	.	.	.	.	.	32ee-\JJJ)	.
!	!	!	!LO:MO:null:mod=!LO&colon;DY&colon;ed=brack	!	!	!	!	!	!	!	!	!	!	!	!	!	!	!
!	!	!	!LO:MO:null:mod=f	!	!LO:MO:null:mod=f	!	!LO:DY:t=f.	!	!	!	!	!	!	!	!	!	!	!
8BB-\	.	8c\J	.	8e-/J	.	8a/J	f	.	.	.	16r	.	.	.	.	.	8cc'\	.
.	.	.	.	.	.	.	.	.	.	.	16a\LL	qui	.	.	.	.	.	.
8r	.	8r	.	8r	.	8r	.	.	.	.	16cc\	.	.	.	.	.	8r	.
.	.	.	.	.	.	.	.	.	.	.	16ee-\JJ	.	.	.	.	.	.	.
=53	=53	=53	=53	=53	=53	=53	=53	=53	=53	=53	=53	=53	=53	=53	=53	=53	=53	=53
8BB-\	.	8r	.	8r	.	8r	.	2ryy	2ryy	2ryy	16ee-\LL	ve-	.	2ryy	2ryy	2ryy	32r	.
.	.	.	.	.	.	.	.	.	.	.	.	.	.	.	.	.	(32B-/LLL	.
.	.	.	.	.	.	.	.	.	.	.	16dd\JJ	.	.	.	.	.	32d/	.
.	.	.	.	.	.	.	.	.	.	.	.	.	.	.	.	.	32f/JJJ)	.
!	!	!	!LO:MO:null:mod=!LO&colon;DY&colon;ed=brack	!	!LO:MO:null:mod=!LO&colon;DY&colon;ed=brack	!	!	!	!	!	!	!	!	!	!	!	!	!
!	!	!	!	!	!LO:DY:t=for.	!	!	!	!	!	!	!	!	!	!	!	!	!
!	!	!	!LO:MO:null:mod=p	!	!LO:MO:null:mod=p	!	!	!	!	!	!	!	!	!	!	!	!	!
8r	.	8d\L	.	8f/L	f	8a-X/L	p	.	.	.	8dd\	-nit	.	.	.	.	(32b-\LLL	.
.	.	.	.	.	.	.	.	.	.	.	.	.	.	.	.	.	32dd\	.
.	.	.	.	.	.	.	.	.	.	.	.	.	.	.	.	.	32ff\	.
.	.	.	.	.	.	.	.	.	.	.	.	.	.	.	.	.	32ee-\JJJ)	.
!	!	!	!LO:MO:null:mod=!LO&colon;DY&colon;ed=brack	!	!	!	!	!	!	!	!	!	!	!	!	!	!	!
!	!	!	!LO:MO:null:mod=f	!	!LO:MO:null:mod=f	!	!LO:DY:t=f.	!	!	!	!	!	!	!	!	!	!	!
8BB-\	.	8d\J	.	8f/J	.	8a-/J	f	.	.	.	8r	.	.	.	.	.	8dd\	.
8r	.	8r	.	8r	.	8r	.	.	.	.	16dd\	be-	.	.	.	.	8r	.
.	.	.	.	.	.	.	.	.	.	.	16dd\	-ne-	.	.	.	.	.	.
=54	=54	=54	=54	=54	=54	=54	=54	=54	=54	=54	=54	=54	=54	=54	=54	=54	=54	=54
!LO:TX:t=P:problem=brak taktu, bis ołówkiem	!	!	!	!	!	!LO:TX:t=P:problem=takt dopisany ołówkiem (vi-de)	!	!	!	!	!	!	!	!	!	!	!	!
8BB-\yy	.	8r	.	8r	.	8ryy	.	2ryy	2ryy	2ryy	16ff\LL	-di-	.	2ryy	2ryy	2ryy	32r	.
.	.	.	.	.	.	.	.	.	.	.	.	.	.	.	.	.	(32G/LLL	.
.	.	.	.	.	.	.	.	.	.	.	16ee-\JJ	.	.	.	.	.	32B-/	.
.	.	.	.	.	.	.	.	.	.	.	.	.	.	.	.	.	32e-/JJJ)	.
!	!	!	!LO:MO:null:mod=!LO&colon;DY&colon;ed=brack	!	!LO:MO:null:mod=!LO&colon;DY&colon;ed=brack	!	!LO:MO:null:mod=!LO&colon;DY&colon;ed=brack	!	!	!	!	!	!	!	!	!	!	!
!	!	!	!	!	!LO:DY:t=for.	!	!	!	!	!	!	!	!	!	!	!	!	!
!	!	!	!LO:MO:null:mod=p	!	!LO:MO:null:mod=p	!	!LO:MO:null:mod=p	!	!	!	!	!	!	!	!	!	!	!
8ryy	.	8B-/L	.	8e-/L	f	8g/Lyy	.	.	.	.	8ee-\	-ctus	.	.	.	.	(32g\LLL	.
.	.	.	.	.	.	.	.	.	.	.	.	.	.	.	.	.	32b-\	.
.	.	.	.	.	.	.	.	.	.	.	.	.	.	.	.	.	32ee-\	.
.	.	.	.	.	.	.	.	.	.	.	.	.	.	.	.	.	32gg\JJJ)	.
!	!	!	!LO:MO:null:mod=!LO&colon;DY&colon;ed=brack	!	!	!	!LO:MO:null:mod=!LO&colon;DY&colon;ed=brack	!	!	!	!	!	!	!	!	!	!	!
!	!	!	!LO:MO:null:mod=f	!	!LO:MO:null:mod=f	!	!LO:MO:null:mod=f	!	!	!	!	!	!	!	!	!	!	!
8BB-\yy	.	8B-/J	.	8e-/J	.	8g/Jyy	.	.	.	.	16r	.	.	.	.	.	8ee-'\	.
.	.	.	.	.	.	.	.	.	.	.	16b-\LL	qui	.	.	.	.	.	.
8ryy	.	8r	.	8r	.	8ryy	.	.	.	.	16ee-\	.	.	.	.	.	8r	.
.	.	.	.	.	.	.	.	.	.	.	16gg\JJ	.	.	.	.	.	.	.
=55	=55	=55	=55	=55	=55	=55	=55	=55	=55	=55	=55	=55	=55	=55	=55	=55	=55	=55
!	!	!	!	!LO:LB:g=original	!	!LO:TX:t=P:problem=brak taktu	!	!	!	!	!	!	!	!	!	!	!	!
8BB-\	.	8r	.	8r	.	2ryy	.	2ryy	2ryy	2ryy	16een\LL	ve-	.	2ryy	2ryy	2ryy	32r	.
.	.	.	.	.	.	.	.	.	.	.	.	.	.	.	.	.	(32B-/LLL	.
.	.	.	.	.	.	.	.	.	.	.	16ff\JJ	.	.	.	.	.	32d/	.
.	.	.	.	.	.	.	.	.	.	.	.	.	.	.	.	.	32f/JJJ)	.
*	*	*	*	*	*	*	*	*	*	*	*custos:f	*	*	*	*	*	*	*
!	!	!	!LO:MO:null:mod=!LO&colon;DY&colon;ed=brack	!	!LO:MO:null:mod=!LO&colon;DY&colon;ed=brack	!	!	!	!	!	!	!	!	!	!	!	!	!
!	!	!	!LO:MO:null:mod=p	!	!LO:MO:null:mod=p	!	!	!	!	!	!	!	!	!	!	!	!LO:SIC:o=32b-\LLL	!
8r	.	8d\L	.	8f/L	.	.	.	.	.	.	8ff\	-nit	.	.	.	.	(32b-LLL	.
.	.	.	.	.	.	.	.	.	.	.	.	.	.	.	.	.	32dd\	.
.	.	.	.	.	.	.	.	.	.	.	.	.	.	.	.	.	32ff\	.
!	!	!	!	!	!	!	!	!	!	!	!	!	!	!	!	!	!LO:SIC:o=32aa-X\JJJ	!
.	.	.	.	.	.	.	.	.	.	.	.	.	.	.	.	.	32aa-JJJ)	.
!	!	!	!	!	!	!	!	!	!	!	!LO:LB:g=original	!	!	!	!	!	!	!
8D\	.	8B-\	.	8f/	.	.	.	.	.	.	8r	.	.	.	.	.	8ff\	.
8r	.	8d\J	.	8B-/J	.	.	.	.	.	.	16a-X\	be-	.	.	.	.	8r	.
.	.	.	.	.	.	.	.	.	.	.	16a-\	-ne-	.	.	.	.	.	.
=56	=56	=56	=56	=56	=56	=56	=56	=56	=56	=56	=56	=56	=56	=56	=56	=56	=56	=56
!	!	!	!	!	!	!	!LO:MO:null:mod=!LO&colon;DY&colon;ed=brack	!	!	!	!	!	!	!	!	!	!	!
!	!	!	!	!	!LO:DY:t=fp.:rj	!LO:SIC:o=16e-/LL	!LO:MO:null:mod=fp	!	!	!	!	!	!	!	!	!	!LO:TX:a:t=5.:mod=	!
8E-\	.	8e-\	.	(16B-/LL	fp	(16e-LL	.	2ryy	2ryy	2ryy	8.g\L	-di-	.	2ryy	2ryy	2ryy	0r	.
!	!	!	!	!	!	!LO:SIC:o=16g/	!	!	!	!	!	!	!	!	!	!	!	!
.	.	.	.	16e-/)	.	16g)	.	.	.	.	.	.	.	.	.	.	.	.
!	!	!	!	!	!	!LO:SIC:o=16g/	!	!	!	!	!	!	!	!	!	!	!	!
8r	.	8r	.	16e-/|	.	16g|	.	.	.	.	.	.	.	.	.	.	.	.
!	!	!	!	!	!	!LO:SIC:o=16g/JJ	!	!	!	!	!	!	!	!	!	!	!	!
.	.	.	.	16e-/JJ|	.	16g|JJ	.	.	.	.	16cc\Jk	.	.	.	.	.	.	.
8D\	.	8Bn/	.	16r	.	16r	.	.	.	.	8.bn\	-ctus	.	.	.	.	.	.
.	.	.	.	16f/LL	.	16g/LL	.	.	.	.	.	.	.	.	.	.	.	.
8r	.	8r	.	16f/	.	16g/	.	.	.	.	.	.	.	.	.	.	.	.
.	.	.	.	16f/JJ	.	16g/JJ	.	.	.	.	16dd\	qui	.	.	.	.	.	.
=57	=57	=57	=57	=57	=57	=57	=57	=57	=57	=57	=57	=57	=57	=57	=57	=57	=57	=57
!	!	!LO:LB:g=original	!	!	!	!	!	!	!	!	!	!	!	!	!	!	!	!
8E-\	.	8c\	.	16r	.	16r	.	2ryy	2ryy	2ryy	8dd\L	ve-	.	2ryy	2ryy	2ryy	.	.
.	.	.	.	16e-/LL	.	16g/LL	.	.	.	.	.	.	.	.	.	.	.	.
8r	.	8r	.	16e-/	.	16g/	.	.	.	.	8cc\J	-nit	.	.	.	.	.	.
.	.	.	.	16e-/JJ	.	16g/JJ	.	.	.	.	.	.	.	.	.	.	.	.
8BBn\	.	8f\	.	16r	.	16r	.	.	.	.	8r	.	.	.	.	.	.	.
.	.	.	.	16d/LL	.	16g/LL	.	.	.	.	.	.	.	.	.	.	.	.
8r	.	8r	.	16d/	.	16g/	.	.	.	.	16r	.	.	.	.	.	.	.
.	.	.	.	16d/JJ	.	16g/JJ	.	.	.	.	16cc\	qui	.	.	.	.	.	.
=58	=58	=58	=58	=58	=58	=58	=58	=58	=58	=58	=58	=58	=58	=58	=58	=58	=58	=58
!LO:LB:g=original	!	!	!	!	!	!	!	!	!	!	!	!	!	!	!	!	!	!
!LO:TX:t=P:problem=mixed beam	!	!LO:TX:t=P:problem=mixed beam	!	!	!	!	!	!	!	!	!	!	!	!	!	!	!	!
8C\L	.	8f\L	.	16e-/LL	.	16r	.	2ryy	2ryy	2ryy	16ff\LL	ve-	.	2ryy	2ryy	2ryy	.	.
!	!	!	!	!	!	!LO:SIC:v:o=16dd\LL	!	!	!	!	!	!	!	!	!	!	!	!
.	.	.	.	16g/	.	16ee-LL	.	.	.	.	16ee-\JJ	.	.	.	.	.	.	.
8E-\	.	8E-/	.	16f/	.	16dd\	.	.	.	.	16dd\	-nit	.	.	.	.	.	.
.	.	.	.	16e-/JJ	.	16cc\JJ	.	.	.	.	16cc\	in	.	.	.	.	.	.
8F\	.	8F/	.	16r	.	16r	.	.	.	.	8b-\	no-	.	.	.	.	.	.
.	.	.	.	16d/	.	16b-\	.	.	.	.	.	.	.	.	.	.	.	.
8FF/J	.	8F/J	.	16r	.	16r	.	.	.	.	8a\	-mi-	.	.	.	.	.	.
.	.	.	.	16c/	.	16a\	.	.	.	.	.	.	.	.	.	.	.	.
=59	=59	=59	=59	=59	=59	=59	=59	=59	=59	=59	=59	=59	=59	=59	=59	=59	=59	=59
8BB-\	.	8F/	.	8d/	.	8b-\	.	2ryy	2ryy	2ryy	(16b-\LL	-ne	.	2ryy	2ryy	2ryy	.	.
.	.	.	.	.	.	.	.	.	.	.	32cc\L	.	.	.	.	.	.	.
.	.	.	.	.	.	.	.	.	.	.	32dd\JJJ	.	.	.	.	.	.	.
8r	.	8r	.	8r	.	8r	.	.	.	.	32ee-\LLL	.	.	.	.	.	.	.
.	.	.	.	.	.	.	.	.	.	.	32dd\	.	.	.	.	.	.	.
.	.	.	.	.	.	.	.	.	.	.	32cc\	.	.	.	.	.	.	.
.	.	.	.	.	.	.	.	.	.	.	32b-\JJJ	.	.	.	.	.	.	.
8AA\	.	8A/	.	8f/	.	8cc\	.	.	.	.	(16cc\LL)	.	.	.	.	.	.	.
.	.	.	.	.	.	.	.	.	.	.	32dd\L	.	.	.	.	.	.	.
.	.	.	.	.	.	.	.	.	.	.	32ee-\JJJ	.	.	.	.	.	.	.
8r	.	8r	.	8r	.	8ryy	.	.	.	.	32ff\LLL	.	.	.	.	.	.	.
.	.	.	.	.	.	.	.	.	.	.	32ee-\	.	.	.	.	.	.	.
.	.	.	.	.	.	.	.	.	.	.	32dd\	.	.	.	.	.	.	.
.	.	.	.	.	.	.	.	.	.	.	32cc\JJJ)	.	.	.	.	.	.	.
=60	=60	=60	=60	=60	=60	=60	=60	=60	=60	=60	=60	=60	=60	=60	=60	=60	=60	=60
!	!	!LO:TX:t=P:problem=mixed beam	!	!	!	!LO:LB:g=original	!	!	!	!	!LO:LB:g=original	!	!	!	!	!	!	!
8BB-/L	.	8B-/L	.	8f|/L	.	8dd\|	.	2ryy	2ryy	2ryy	(16dd\LL	Do-	.	2ryy	2ryy	2ryy	2r	.
.	.	.	.	.	.	.	.	.	.	.	16ff\JJ	.	.	.	.	.	.	.
8E-/J	.	8e-/J	.	(16g/L	.	(8cc\L	.	.	.	.	32ee-\LLL	.	.	.	.	.	.	.
.	.	.	.	.	.	.	.	.	.	.	32dd\	.	.	.	.	.	.	.
.	.	.	.	16e-/JJ)	.	.	.	.	.	.	32ee-\	.	.	.	.	.	.	.
.	.	.	.	.	.	.	.	.	.	.	32cc\JJJ)	.	.	.	.	.	.	.
!LO:TX:t=P:problem=mixed beam	!	!	!	!	!	!	!	!	!	!	!	!	!	!	!	!	!	!
8F\L	.	8f\L	.	8d/L	.	8b-\	.	.	.	.	8b-\	.	.	.	.	.	.	.
8FF/J	.	8F/J	.	8c/J	.	8a\J)	.	.	.	.	8a\	-mi-	.	.	.	.	.	.
=61	=61	=61	=61	=61	=61	=61	=61	=61	=61	=61	=61	=61	=61	=61	=61	=61	=61	=61
!	!	!	!	!LO:LB:g=original	!	!	!LO:DY:a:t=for.	!	!	!	!	!	!	!	!	!	!LO:LB:g=original	!
4BB-/	.	8B-/	.	8d/	.	16b-\LL	f	2ryy	2ryy	2ryy	4b-\	-ni.	.	2ryy	2ryy	2ryy	4r	.
.	.	.	.	.	.	16ff\	.	.	.	.	.	.	.	.	.	.	.	.
.	.	8r	.	8r	.	16dd\	.	.	.	.	.	.	.	.	.	.	.	.
.	.	.	.	.	.	16b-\JJ	.	.	.	.	.	.	.	.	.	.	.	.
!	!	!	!	!	!	!LO:SIC:o=16f/LL	!LO:DY:a:t=p.	!	!	!	!	!	!	!	!	!	!	!
4r	.	8F/L	.	8f/L	.	16fLL'	p	.	.	.	4r	.	.	.	.	.	8r	.
.	.	.	.	.	.	16f'/	.	.	.	.	.	.	.	.	.	.	.	.
!	!	!	!	!	!	!	!	!	!	!	!	!	!	!	!	!	!LO:MO:mod=!LO&colon;TX&colon;i&colon;t=Solo	!
!	!	!	!	!	!	!	!	!	!	!	!	!	!	!	!	!	!LO:TX:i:t=Solo.:b	!
.	.	8B-/J	.	8d/J	.	16f'/	.	.	.	.	.	.	.	.	.	.	(32ee-\LLL	.
.	.	.	.	.	.	.	.	.	.	.	.	.	.	.	.	.	32dd\	.
.	.	.	.	.	.	16f'/JJ	.	.	.	.	.	.	.	.	.	.	32cc\	.
.	.	.	.	.	.	.	.	.	.	.	.	.	.	.	.	.	32b-\JJJ)	.
=62	=62	=62	=62	=62	=62	=62	=62	=62	=62	=62	=62	=62	=62	=62	=62	=62	=62	=62
!	!	!LO:SIC:o=(8A/L	!	!	!	!	!	!	!	!	!LO:TX:a:t=10.:mod=	!	!	!	!	!	!	!
8FF/	.	8AL	.	(16c/LL	.	8f/	.	2ryy	2ryy	2ryy	0r	.	.	2ryy	2ryy	2ryy	(32ff\LLL	.
.	.	.	.	.	.	.	.	.	.	.	.	.	.	.	.	.	32ee-\	.
.	.	.	.	16e-/	.	.	.	.	.	.	.	.	.	.	.	.	32cc\	.
.	.	.	.	.	.	.	.	.	.	.	.	.	.	.	.	.	32a\JJJ)	.
!	!	!	!	!	!	!	!LO:DY:t=f.	!	!	!	!	!	!	!	!	!	!	!
!	!	!	!	!	!	!	!LO:MO:null:mod=rf	!	!	!	!	!	!	!	!	!	!	!
8r	.	8c/	.	16A/	.	4ff\	f	.	.	.	.	.	.	.	.	.	(32f/LLL	.
.	.	.	.	.	.	.	.	.	.	.	.	.	.	.	.	.	32e-/	.
.	.	.	.	16c/JJ)	.	.	.	.	.	.	.	.	.	.	.	.	32c/	.
.	.	.	.	.	.	.	.	.	.	.	.	.	.	.	.	.	32A/JJJ)	.
!	!	!LO:SIC:o=8A/)	!	!	!	!	!	!	!	!	!	!	!	!	!	!	!	!
8AA/	.	8A	.	(16f/LL	.	.	.	.	.	.	.	.	.	.	.	.	(32F/LLL	.
.	.	.	.	.	.	.	.	.	.	.	.	.	.	.	.	.	32A/	.
!	!	!	!	!	!	!	!	!	!	!	!	!	!	!	!	!	!LO:SIC:o=32c/)	!
.	.	.	.	16a/	.	.	.	.	.	.	.	.	.	.	.	.	32c	.
!	!	!	!	!	!	!	!	!	!	!	!	!	!	!	!	!	!LO:SIC:o=32f/JJJ	!
.	.	.	.	.	.	.	.	.	.	.	.	.	.	.	.	.	32fJJJ)	.
8r	.	8E-/J	.	16c/	.	8a/	.	.	.	.	.	.	.	.	.	.	(32a\LLL	.
.	.	.	.	.	.	.	.	.	.	.	.	.	.	.	.	.	32cc\	.
.	.	.	.	16f/JJ)	.	.	.	.	.	.	.	.	.	.	.	.	32ff\	.
.	.	.	.	.	.	.	.	.	.	.	.	.	.	.	.	.	32ee-\JJJ)	.
=63	=63	=63	=63	=63	=63	=63	=63	=63	=63	=63	=63	=63	=63	=63	=63	=63	=63	=63
8BB-/	.	8D/L	.	(16d/LL	.	8.b-/L	.	2ryy	2ryy	2ryy	.	.	.	2ryy	2ryy	2ryy	32dd\LLL	.
.	.	.	.	.	.	.	.	.	.	.	.	.	.	.	.	.	(32bb-\	.
.	.	.	.	16f/	.	.	.	.	.	.	.	.	.	.	.	.	32aa\	.
.	.	.	.	.	.	.	.	.	.	.	.	.	.	.	.	.	32bb-\JJJ	.
8r	.	8B-/	.	16d/	.	.	.	.	.	.	.	.	.	.	.	.	32ddd\LLL	.
.	.	.	.	.	.	.	.	.	.	.	.	.	.	.	.	.	32bb-\	.
.	.	.	.	16f/JJ)	.	16f/K	.	.	.	.	.	.	.	.	.	.	32ff\	.
.	.	.	.	.	.	.	.	.	.	.	.	.	.	.	.	.	32dd\JJJ)	.
*	*	*	*	*rep	*	*	*	*	*	*	*	*	*	*	*	*	*	*
8D\	.	8F/	.	(16d/LL	.	8.dd/	.	.	.	.	.	.	.	.	.	.	(32b-/LLL	.
.	.	.	.	.	.	.	.	.	.	.	.	.	.	.	.	.	32f/	.
.	.	.	.	16f/	.	.	.	.	.	.	.	.	.	.	.	.	32d/	.
.	.	.	.	.	.	.	.	.	.	.	.	.	.	.	.	.	32B-/JJJ)	.
8r	.	8B-/J	.	16d/	.	.	.	.	.	.	.	.	.	.	.	.	(32d/LLL	.
.	.	.	.	.	.	.	.	.	.	.	.	.	.	.	.	.	32B-/	.
.	.	.	.	16f/JJ)	.	16b-/Jk	.	.	.	.	.	.	.	.	.	.	32F/	.
.	.	.	.	.	.	.	.	.	.	.	.	.	.	.	.	.	32D/JJJ)	.
*	*	*	*	*Xrep	*	*	*	*	*	*	*	*	*	*	*	*	*	*
=64	=64	=64	=64	=64	=64	=64	=64	=64	=64	=64	=64	=64	=64	=64	=64	=64	=64	=64
8F\	.	8A/L	.	(16c/LL	.	16a\LL	.	2ryy	2ryy	2ryy	.	.	.	2ryy	2ryy	2ryy	(32F/LLL	.
.	.	.	.	.	.	.	.	.	.	.	.	.	.	.	.	.	32A/	.
.	.	.	.	16e-/	.	16ff\JJ	.	.	.	.	.	.	.	.	.	.	32c/	.
.	.	.	.	.	.	.	.	.	.	.	.	.	.	.	.	.	32f/JJJ)	.
!	!	!	!	!	!	!	!LO:DY:t=rf.	!	!	!	!	!	!	!	!	!	!	!
8r	.	8c/	.	16c/	.	4ff\	rf	.	.	.	.	.	.	.	.	.	(32a\LLL	.
.	.	.	.	.	.	.	.	.	.	.	.	.	.	.	.	.	32cc\	.
.	.	.	.	16e-/JJ)	.	.	.	.	.	.	.	.	.	.	.	.	32ff\	.
*	*	*	*	*	*	*	*	*	*	*	*	*	*	*	*	*	*custos:a	*
.	.	.	.	.	.	.	.	.	.	.	.	.	.	.	.	.	32cc\JJJ)	.
*	*	*	*	*rep	*	*	*	*	*	*	*	*	*	*	*	*	*	*
!	!	!	!	!	!	!	!	!	!	!	!	!	!	!	!	!	!LO:LB:g=original	!
8F\	.	8A/	.	(16c/LL	.	.	.	.	.	.	.	.	.	.	.	.	(32aa\LLL	.
.	.	.	.	.	.	.	.	.	.	.	.	.	.	.	.	.	32ff\	.
.	.	.	.	16e-/	.	.	.	.	.	.	.	.	.	.	.	.	32ccc\	.
.	.	.	.	.	.	.	.	.	.	.	.	.	.	.	.	.	32bb-\JJJ	.
8r	.	8F/J	.	16c/	.	8a/	.	.	.	.	.	.	.	.	.	.	32aa\LLL	.
.	.	.	.	.	.	.	.	.	.	.	.	.	.	.	.	.	32gg\	.
!	!	!	!	!	!	!	!	!	!	!	!	!	!	!	!	!	!LO:SIC:o=32ff\)	!
.	.	.	.	16e-/JJ)	.	.	.	.	.	.	.	.	.	.	.	.	32ff	.
!	!	!	!	!	!	!	!	!	!	!	!	!	!	!	!	!	!LO:SIC:o=32ee-\JJJ	!
.	.	.	.	.	.	.	.	.	.	.	.	.	.	.	.	.	32ee-JJJ)	.
*	*	*	*	*Xrep	*	*	*	*	*	*	*	*	*	*	*	*	*	*
=65	=65	=65	=65	=65	=65	=65	=65	=65	=65	=65	=65	=65	=65	=65	=65	=65	=65	=65
!LO:LB:g=original	!	!LO:LB:g=original	!	!	!	!	!	!	!	!	!	!	!	!	!	!	!	!
8D\	.	8D/	.	8f/	.	8b-\	.	2ryy	2ryy	2ryy	.	.	.	2ryy	2ryy	2ryy	(32dd\LLL	.
.	.	.	.	.	.	.	.	.	.	.	.	.	.	.	.	.	32bb-\	.
.	.	.	.	.	.	.	.	.	.	.	.	.	.	.	.	.	32eeX\	.
.	.	.	.	.	.	.	.	.	.	.	.	.	.	.	.	.	32ff\JJJ)	.
8r	.	8r	.	8r	.	8r	.	.	.	.	.	.	.	.	.	.	(32cc#X\LLL	.
.	.	.	.	.	.	.	.	.	.	.	.	.	.	.	.	.	32dd\	.
.	.	.	.	.	.	.	.	.	.	.	.	.	.	.	.	.	32a\	.
.	.	.	.	.	.	.	.	.	.	.	.	.	.	.	.	.	32b-\JJJ)	.
8E-\	.	8E-/	.	8g/	.	8cc\	.	.	.	.	.	.	.	.	.	.	(32bX\LLL	.
!	!	!	!	!	!	!	!	!	!	!	!	!	!	!	!	!	!LO:SIC:v:o=32cc#\	!
.	.	.	.	.	.	.	.	.	.	.	.	.	.	.	.	.	32cc	.
.	.	.	.	.	.	.	.	.	.	.	.	.	.	.	.	.	32ff#X\	.
.	.	.	.	.	.	.	.	.	.	.	.	.	.	.	.	.	32gg\JJJ)	.
8r	.	8r	.	8r	.	8r	.	.	.	.	.	.	.	.	.	.	(32dd\LLL	.
!	!	!	!	!	!	!	!	!	!	!	!	!	!	!	!	!	!LO:SIC:v:o=32ee\	!
.	.	.	.	.	.	.	.	.	.	.	.	.	.	.	.	.	32ee-	.
.	.	.	.	.	.	.	.	.	.	.	.	.	.	.	.	.	32bnX\	.
!	!	!	!	!	!	!	!	!	!	!	!	!	!	!	!	!	!LO:SIC:v:o=32cc#\JJJ)	!
.	.	.	.	.	.	.	.	.	.	.	.	.	.	.	.	.	32ccJJJ)	.
=66	=66	=66	=66	=66	=66	=66	=66	=66	=66	=66	=66	=66	=66	=66	=66	=66	=66	=66
8F\	.	8F/	.	8b-\	.	8dd\	.	2ryy	2ryy	2ryy	0r	.	.	2ryy	2ryy	2ryy	16.ff\LL	.
.	.	.	.	.	.	.	.	.	.	.	.	.	.	.	.	.	32ff\JJk	.
!	!	!	!	!	!	!	!	!	!	!	!	!	!	!	!	!	!LO:SIC:o=32gg\LLL	!
8r	.	8r	.	8r	.	8r	.	.	.	.	.	.	.	.	.	.	(32ggLLL	.
.	.	.	.	.	.	.	.	.	.	.	.	.	.	.	.	.	32ff\	.
.	.	.	.	.	.	.	.	.	.	.	.	.	.	.	.	.	32gg\	.
!	!	!	!	!	!	!	!	!	!	!	!	!	!	!	!	!	!LO:SIC:o=32ff\JJJ	!
.	.	.	.	.	.	.	.	.	.	.	.	.	.	.	.	.	32ffJJJ)	.
!	!	!	!	!	!	!	!	!	!	!	!	!	!	!	!	!	!	!LO:MO:mod=!null:null
!	!	!	!	!	!	!	!	!	!	!	!	!	!	!	!	!	!	!LO:HP:t=de cresc&colon;
4r	.	4r	.	4r	.	4r	.	.	.	.	.	.	.	.	.	.	(32eeX\LLL	>
.	.	.	.	.	.	.	.	.	.	.	.	.	.	.	.	.	32ff\	.
.	.	.	.	.	.	.	.	.	.	.	.	.	.	.	.	.	32gg-X\	.
.	.	.	.	.	.	.	.	.	.	.	.	.	.	.	.	.	32ff\JJJ	.
.	.	.	.	.	.	.	.	.	.	.	.	.	.	.	.	.	32gg-\LLL	.
.	.	.	.	.	.	.	.	.	.	.	.	.	.	.	.	.	32ff\	.
.	.	.	.	.	.	.	.	.	.	.	.	.	.	.	.	.	32gg-\	.
.	.	.	.	.	.	.	.	.	.	.	.	.	.	.	.	.	32ff\JJJ)	.
=67	=67	=67	=67	=67	=67	=67	=67	=67	=67	=67	=67	=67	=67	=67	=67	=67	=67	=67
!	!	!	!	!	!	!	!	!	!	!	!	!	!	!	!	!	!	!LO:MO:mod=!null:null
!LO:TX:a:t=1.:mod=	!	!LO:TX:a:t=1.:mod=	!	!LO:TX:a:t=1.:mod=	!	!LO:TX:a:t=1.:mod=	!	!	!	!	!	!	!	!	!	!	!	!LO:HP:t=cres. cen do
2r	.	2r	.	2r	.	2r	.	2ryy	2ryy	2ryy	.	.	.	2ryy	2ryy	2ryy	(32eeX\LLL	<
.	.	.	.	.	.	.	.	.	.	.	.	.	.	.	.	.	32ff\	.
.	.	.	.	.	.	.	.	.	.	.	.	.	.	.	.	.	32gg-X\	.
.	.	.	.	.	.	.	.	.	.	.	.	.	.	.	.	.	32ff\JJJ)	.
.	.	.	.	.	.	.	.	.	.	.	.	.	.	.	.	.	(32gg-\LLL	.
.	.	.	.	.	.	.	.	.	.	.	.	.	.	.	.	.	32ff\	.
.	.	.	.	.	.	.	.	.	.	.	.	.	.	.	.	.	32gg-\	.
*	*	*	*	*	*	*	*	*	*	*	*	*	*	*	*	*	*custos:b	*
.	.	.	.	.	.	.	.	.	.	.	.	.	.	.	.	.	32ff\JJJ)	.
!	!	!	!	!	!	!	!	!	!	!	!	!	!	!	!	!	!LO:LB:g=original	!
.	.	.	.	.	.	.	.	.	.	.	.	.	.	.	.	.	(32gg\LLL	.
.	.	.	.	.	.	.	.	.	.	.	.	.	.	.	.	.	32ff\	.
.	.	.	.	.	.	.	.	.	.	.	.	.	.	.	.	.	32gg\	.
.	.	.	.	.	.	.	.	.	.	.	.	.	.	.	.	.	32ff\JJJ)	.
!	!	!	!	!	!	!	!	!	!	!	!	!	!	!	!	!	!	!LO:DY:t=for.
.	.	.	.	.	.	.	.	.	.	.	.	.	.	.	.	.	(32bb-\LLL	f
.	.	.	.	.	.	.	.	.	.	.	.	.	.	.	.	.	32ff\	.
.	.	.	.	.	.	.	.	.	.	.	.	.	.	.	.	.	32dd\	.
.	.	.	.	.	.	.	.	.	.	.	.	.	.	.	.	.	32b-\JJJ)	.
=68	=68	=68	=68	=68	=68	=68	=68	=68	=68	=68	=68	=68	=68	=68	=68	=68	=68	=68
!	!	!LO:MO:null:mod=*tremolo	!	!	!	!LO:MO:null:mod=*tremolo	!	!	!	!	!	!	!	!	!	!	!	!
*tremolo	*	*	*	*tremolo	*	*	*	*	*	*	*	*	*	*	*	*	*	*
.	.	.	.	.	.	.	.	.	.	.	.	.	.	.	.	.	8qdd/	.
!	!LO:DY:t=for.	!	!LO:DY:t=for.	!LO:LB:g=original	!LO:DY:t=for.	!LO:LB:g=original	!	!	!	!	!	!	!	!	!	!	!	!
!	!	!	!	!LO:SIC:v:o=16g/LL	!	!	!LO:MO:null:mod=f	!	!	!	!	!	!	!	!	!	!	!
16F\LL	f	16f\LL	f	16fLL	f	16b-\LL	.	2ryy	2ryy	2ryy	.	.	.	2ryy	2ryy	2ryy	(<2cc\T	.
!	!	!	!	!LO:SIC:v:o=16g/	!	!	!LO:HP:t=cres.	!	!	!	!	!	!	!	!	!	!	!
!	!	!	!	!	!	!	!LO:MO:null:mod=.	!	!	!	!	!	!	!	!	!	!	!
16F\	.	16f\	.	16f	.	16b-\	<	.	.	.	.	.	.	.	.	.	.	.
!	!	!	!	!LO:SIC:v:o=16g/	!	!	!	!	!	!	!	!	!	!	!	!	!	!
16F\	.	16f\	.	16f	.	16b-\	.	.	.	.	.	.	.	.	.	.	.	.
!	!	!	!	!LO:SIC:v:o=16g/JJ	!	!	!	!	!	!	!	!	!	!	!	!	!	!
16F\JJ	.	16f\JJ	.	16fJJ	.	16b-\JJ	.	.	.	.	.	.	.	.	.	.	.	.
!	!	!	!	!	!	!	!LO:DY:t=for.	!	!	!	!	!	!	!	!	!	!	!
!	!	!	!	!	!	!	!LO:MO:null:mod=.	!	!	!	!	!	!	!	!	!	!	!
16FF/LL	.	16F/LL	.	16e-/LL	.	16a/LL	f	.	.	.	.	.	.	.	.	.	.	.
16FF/	.	16F/	.	16e-/	.	16a/	.	.	.	.	.	.	.	.	.	.	.	.
16FF/	.	16F/	.	16e-/	.	16a/	.	.	.	.	.	.	.	.	.	.	.	.
16FF/JJ	.	16F/JJ	.	16e-/JJ	.	16a/JJ	.	.	.	.	.	.	.	.	.	.	.	.
.	.	.	.	.	.	.	.	.	.	.	.	.	.	.	.	.	32qqb-/LLL	.
.	.	.	.	.	.	.	.	.	.	.	.	.	.	.	.	.	32qqcc/JJJ)	.
!	!	!LO:MO:null:mod=*Xtremolo	!	!	!	!LO:MO:null:mod=*Xtremolo	!	!	!	!	!	!	!	!	!	!	!	!
*	*	*	*	*Xtremolo	*	*	*	*	*	*	*	*	*	*	*	*	*	*
*Xtremolo	*	*	*	*	*	*	*	*	*	*	*	*	*	*	*	*	*	*
=69	=69	=69	=69	=69	=69	=69	=69	=69	=69	=69	=69	=69	=69	=69	=69	=69	=69	=69
!	!	!	!	!	!	!LO:TX:t=P:problem=mixed beam	!	!	!	!	!	!	!	!	!	!	!LO:TX:t=P:problem=przednutki przed kreską	!
!LO:SIC:v:o=8C/	!LO:DY:t=p.	!	!LO:DY:t=p.	!	!	!LO:SIC:o=8b-\L	!	!	!	!	!	!	!	!	!	!	!	!
8BB-	p	8B-/	p	8d|/L	.	8b-L|	.	2ryy	2ryy	2ryy	.	.	.	2ryy	2ryy	2ryy	8b-\L	.
!	!	!	!	!	!LO:DY:t=p.	!LO:SIC:o=16f/L	!LO:DY:t=p.	!	!	!	!	!	!	!	!	!	!	!
8r	.	8r	.	(16d/L	p	(16fL	p	.	.	.	.	.	.	.	.	.	32dd\LL	.
.	.	.	.	.	.	.	.	.	.	.	.	.	.	.	.	.	32ff\	.
!	!	!	!	!	!	!LO:SIC:o=16g/JJ	!	!	!	!	!	!	!	!	!	!	!	!
.	.	.	.	16e-/JJ)	.	16gJJ)	.	.	.	.	.	.	.	.	.	.	32ee-\	.
.	.	.	.	.	.	.	.	.	.	.	.	.	.	.	.	.	32gg\JJJ	.
!	!	!	!	!LO:SIC:o=8A|'/L	!	!LO:SIC:o=8c/L	!	!	!	!	!	!	!	!	!	!	!	!
8F\	.	8F/	.	8A|L	.	8cL|	.	.	.	.	.	.	.	.	.	.	(8cc\L	.
!	!	!	!	!	!	!LO:SIC:o=16f/L	!	!	!	!	!	!	!	!	!	!	!	!
8r	.	8r	.	(16c/L	.	(16fL	.	.	.	.	.	.	.	.	.	.	32ff\LL	.
.	.	.	.	.	.	.	.	.	.	.	.	.	.	.	.	.	32ee-\	.
!	!	!	!	!	!	!LO:SIC:o=16e-/JJ	!	!	!	!	!	!	!	!	!	!	!	!
.	.	.	.	16c/JJ)	.	16e-JJ)	.	.	.	.	.	.	.	.	.	.	32cc\	.
.	.	.	.	.	.	.	.	.	.	.	.	.	.	.	.	.	32dd\JJJ)	.
=70	=70	=70	=70	=70	=70	=70	=70	=70	=70	=70	=70	=70	=70	=70	=70	=70	=70	=70
!	!	!	!	!LO:SIC:o=16B-/LL	!LO:MO:null:mod=<	!	!	!	!	!	!	!	!	!	!	!	!	!
8BB-/	.	8B-/	.	16B-LL'	.	16d'/LL	<	2ryy	2ryy	2ryy	1r	.	.	2ryy	2ryy	2ryy	(32b-\LLL	<
.	.	.	.	.	.	.	.	.	.	.	.	.	.	.	.	.	32cc\	.
!	!	!	!	!LO:SIC:o=16c/	!	!	!	!	!	!	!	!	!	!	!	!	!	!
.	.	.	.	16c'	.	16e-'/	.	.	.	.	.	.	.	.	.	.	32dd\	.
.	.	.	.	.	.	.	.	.	.	.	.	.	.	.	.	.	32ee-\JJJ	.
!	!	!	!	!LO:SIC:o=16c#X/	!	!	!	!	!	!	!	!	!	!	!	!	!	!
8r	.	8r	.	(16c#	.	(16en/	.	.	.	.	.	.	.	.	.	.	32eeX\LLL	.
.	.	.	.	.	.	.	.	.	.	.	.	.	.	.	.	.	32ff\	.
!	!	!	!	!LO:SIC:o=16d/JJ	!	!	!	!	!	!	!	!	!	!	!	!	!	!
.	.	.	.	16dJJ)	.	16f/JJ)	.	.	.	.	.	.	.	.	.	.	32gg\	.
!	!	!	!	!	!	!	!	!	!	!	!	!	!	!	!	!	!	!LO:MO:null:mod=.
.	.	.	.	.	.	.	.	.	.	.	.	.	.	.	.	.	32ff\JJJ)	[
!	!	!	!	!	!	!	!	!	!	!	!	!	!	!	!	!	!	!LO:HP:t=semper cres.
!	!	!	!	!	!	!	!LO:MO:null:mod=.	!	!	!	!	!	!	!	!	!	!	!LO:MO:null:mod=.
8F\	.	8F/L	.	16A/LL	.	16c/LL	[	.	.	.	.	.	.	.	.	.	(32a\LLL	<
.	.	.	.	.	.	.	.	.	.	.	.	.	.	.	.	.	32b-\	.
!	!	!	!	!LO:SIC:v:o=16c#/	!	!	!	!	!	!	!	!	!	!	!	!	!	!
.	.	.	.	16c	.	16f/	.	.	.	.	.	.	.	.	.	.	32cc\	.
.	.	.	.	.	.	.	.	.	.	.	.	.	.	.	.	.	32dd\JJJ	.
8r	.	8F/J	.	16A/	.	16e-X/	.	.	.	.	.	.	.	.	.	.	32ee-\LLL	.
.	.	.	.	.	.	.	.	.	.	.	.	.	.	.	.	.	32cc\	.
!	!	!	!	!LO:SIC:v:o=16c#/JJ	!	!	!	!	!	!	!	!	!	!	!	!	!	!
.	.	.	.	16cJJ	.	16f/JJ	.	.	.	.	.	.	.	.	.	.	32a\	.
!	!	!	!	!	!LO:MO:null:mod=[	!	!LO:MO:null:mod=[	!	!	!	!	!	!	!	!	!	!	!LO:MO:null:mod=[
.	.	.	.	.	.	.	.	.	.	.	.	.	.	.	.	.	32cc\JJJ)	.
=71	=71	=71	=71	=71	=71	=71	=71	=71	=71	=71	=71	=71	=71	=71	=71	=71	=71	=71
!	!LO:DY:t=for.	!	!LO:DY:t=for.	!	!LO:MO:null:mod=f	!	!LO:MO:null:mod=f	!	!	!	!	!	!	!	!	!	!LO:SIC:o=32b-\LLL	!LO:DY:t=for.
8BB-/L	f	8B-/L	f	8B-/L	.	8d/L	.	2ryy	2ryy	2ryy	.	.	.	2ryy	2ryy	2ryy	(32b-LLL	f
.	.	.	.	.	.	.	.	.	.	.	.	.	.	.	.	.	32ff\	.
.	.	.	.	.	.	.	.	.	.	.	.	.	.	.	.	.	32dd\	.
!	!	!	!	!	!	!	!	!	!	!	!	!	!	!	!	!	!LO:SIC:o=32b-\JJJ	!
.	.	.	.	.	.	.	.	.	.	.	.	.	.	.	.	.	32b-JJJ)	.
!	!	!	!	!	!LO:DY:t=for.	!	!LO:DY:t=for.	!	!	!	!	!	!	!	!	!	!	!
!	!	!	!	!	!LO:MO:null:mod=.	!	!LO:MO:null:mod=.	!	!	!	!	!	!	!	!	!	!	!
8BB-/	.	8F/ 8B-	.	8f/	f	8f/ 8dd	f	.	.	.	.	.	.	.	.	.	(32f/LLL	.
.	.	.	.	.	.	.	.	.	.	.	.	.	.	.	.	.	32d/	.
.	.	.	.	.	.	.	.	.	.	.	.	.	.	.	.	.	32B-/	.
.	.	.	.	.	.	.	.	.	.	.	.	.	.	.	.	.	32F/JJJ)	.
8BB-/J	.	8F/J 8B-	.	8d/J	.	8d/J 8b-	.	.	.	.	.	.	.	.	.	.	8D/	.
!LO:TX:b:t=Verte:mod=	!	!	!	!	!	!	!	!	!	!	!	!	!	!	!	!	!	!
8r	.	8r	.	8r	.	8r	.	.	.	.	.	.	.	.	.	.	8r	.
==	==	==	==	==	==	==	==	==	==	==	==	==	==	==	==	==	==	==
*-	*-	*-	*-	*-	*-	*-	*-	*-	*-	*-	*-	*-	*-	*-	*-	*-	*-	*-
!!!system-decoration: [(s1,s2)][(s3,s4)][(s5,s6,s7,s8)][(s9,s10,s11)]s12
!!!RDF**kern: | = vertical stroke
!!!RDF**kern: > = above
!!!RDF**kern: < = below
!!!filter-modern: sic -sq | -shed -e "s/TX(.*):t=P:/tx$1:t=P:/LG" | shed -e "s/^(\d+[\/\\]right)/$1yy/I;s/^(\d+[\/\\]left)/$1yy/I" | shed -e "s/^custos:/Xcustos:/I" | shed -e "s/(LO:DY.*):t=(.*$)/$1:T=$2/L; s/LO:DY(.*)(:a:)(.*)/LO:dy:$1$2$3/L; s/LO:DY(.*)(:b:)(.*)/LO:dy:$1$2$3/L; s/LO:DY(.*)(:[ab])$/LO:dy:$1$2/L; s/LO:DY(.*)(:rj:)(.*)/LO:dy:$1$2$3/L" | shed -e "s/^(X?)rep$/$1REP/I" | shed -e "s/yy//" | shed -k -e "s/LO:N:vis/LO:n:vis:/L" | shed -e "s/:rj/:RJ/L" | shed -e "s/LO:DY:(a|b|rj)/LO:dy:$1/L" | shed -e "s/-//B" | modori -m | tie -s | autostem -r | humtr -p
!!!ENC: Andrzej Borzym
!!!END: 2020-09-15
!!!EED: Krzysztof Stępień
!!!EEV: 2022-01-31
!!!ENC-modern: Andrzej Borzym
!!!END-modern: 2022-11-22
!!!ENC-modern: Andrzej Borzym
!!!END-modern: 2022-11-22
